;FLAVOR:Marlin
;TIME:24810
;Filament used: 15.0308m
;Layer height: 0.1
;MINX:12.2
;MINY:7.2
;MINZ:0.3
;MAXX:97.8
;MAXY:102.8
;MAXZ:40
;TARGET_MACHINE.NAME:Unknown
;Generated with Cura_SteamEngine 5.10.2
M104 S200
M105
M109 S200
G28 ;Home
G1 Z15.0 F6000 ;Move the platform down 15mm
;Prime the extruder
G92 E0
G1 F200 E3
G92 E0
M82 ;absolute extrusion mode
G92 E0
G92 E0
G1 F1500 E-6.5
;LAYER_COUNT:398
;LAYER:0
M107
G0 F3600 X13.617 Y10.55 Z0.3
;TYPE:SKIRT
G1 F1500 E0
G1 F1800 X14.39 Y9.552 E0.06298
G1 X15.743 Y8.46 E0.14972
G1 X17.722 Y7.474 E0.26003
G1 X19.246 Y7.252 E0.33687
G1 X90.622 Y7.2 E3.89783
G1 X92.679 Y7.622 E4.00259
G1 X94.45 Y8.617 E4.10394
G1 X95.448 Y9.39 E4.16692
G1 X96.54 Y10.743 E4.25366
G1 X97.526 Y12.722 E4.36397
G1 X97.748 Y14.246 E4.4408
G1 X97.8 Y95.622 E8.50067
G1 X97.378 Y97.679 E8.60543
G1 X96.383 Y99.45 E8.70678
G1 X95.61 Y100.448 E8.76976
G1 X94.257 Y101.54 E8.8565
G1 X92.278 Y102.526 E8.96681
G1 X90.754 Y102.748 E9.04364
G1 X19.283 Y102.8 E12.60935
G1 X17.282 Y102.361 E12.71155
G1 X15.496 Y101.361 E12.81367
G1 X14.553 Y100.622 E12.87344
G1 X13.472 Y99.276 E12.95957
G1 X12.474 Y97.26 E13.0718
G1 X12.252 Y95.754 E13.14775
G1 X12.2 Y14.378 E17.20761
G1 X12.622 Y12.321 E17.31237
G1 X13.617 Y10.55 E17.41372
G0 F3600 X13.933 Y10.795
G1 F1800 X14.678 Y9.833 E17.47442
G1 X15.96 Y8.799 E17.55659
G1 X17.842 Y7.861 E17.6615
G1 X19.304 Y7.648 E17.73521
G1 X90.581 Y7.6 E21.29124
G1 X92.538 Y8.002 E21.39091
G1 X94.205 Y8.933 E21.48617
G1 X95.167 Y9.678 E21.54687
G1 X96.201 Y10.96 E21.62904
G1 X97.139 Y12.842 E21.73395
G1 X97.352 Y14.304 E21.80766
G1 X97.4 Y95.581 E25.86259
G1 X96.998 Y97.538 E25.96226
G1 X96.067 Y99.205 E26.05752
G1 X95.322 Y100.167 E26.11822
G1 X94.04 Y101.201 E26.20039
G1 X92.158 Y102.139 E26.3053
G1 X90.696 Y102.352 E26.37901
G1 X19.328 Y102.4 E29.93958
G1 X17.424 Y101.982 E30.03683
G1 X15.743 Y101.046 E30.13282
G1 X14.837 Y100.336 E30.19025
G1 X13.808 Y99.055 E30.27222
G1 X12.861 Y97.142 E30.37872
G1 X12.648 Y95.696 E30.45164
G1 X12.6 Y14.419 E34.50656
G1 X13.002 Y12.462 E34.60624
G1 X13.933 Y10.795 E34.70149
G0 F3600 X14.249 Y11.04
G1 F1800 X14.966 Y10.114 E34.75992
G1 X16.177 Y9.138 E34.83752
G1 X17.962 Y8.248 E34.93703
G1 X19.362 Y8.044 E35.00761
G1 X90.539 Y8 E38.55865
G1 X92.397 Y8.382 E38.65328
G1 X93.96 Y9.249 E38.74246
G1 X94.886 Y9.966 E38.80088
G1 X95.862 Y11.177 E38.87848
G1 X96.752 Y12.962 E38.97799
G1 X96.956 Y14.362 E39.04857
G1 X97 Y95.539 E43.09851
G1 X96.618 Y97.397 E43.19315
G1 X95.751 Y98.96 E43.28232
G1 X95.034 Y99.886 E43.34075
G1 X93.823 Y100.862 E43.41834
G1 X92.038 Y101.752 E43.51785
G1 X90.638 Y101.956 E43.58844
G1 X19.373 Y102 E47.14386
G1 X17.567 Y101.603 E47.23612
G1 X15.99 Y100.731 E47.32602
G1 X15.121 Y100.05 E47.3811
G1 X14.144 Y98.834 E47.45892
G1 X13.248 Y97.024 E47.55968
G1 X13.044 Y95.638 E47.62957
G1 X13 Y14.461 E51.67951
G1 X13.382 Y12.603 E51.77415
G1 X14.249 Y11.04 E51.86332
G0 F3600 X14.599 Y11.234
G1 F1800 X15.251 Y10.398 E51.91621
G1 X16.397 Y9.475 E51.98962
G1 X18.082 Y8.635 E52.08356
G1 X19.42 Y8.44 E52.15101
G1 X90.497 Y8.4 E55.69706
G1 X92.257 Y8.762 E55.78671
G1 X93.766 Y9.599 E55.8728
G1 X94.602 Y10.251 E55.92569
G1 X95.525 Y11.397 E55.9991
G1 X96.365 Y13.082 E56.09303
G1 X96.56 Y14.42 E56.16049
G1 X96.6 Y95.497 E60.20544
G1 X96.238 Y97.257 E60.29508
G1 X95.401 Y98.766 E60.38117
G1 X94.749 Y99.602 E60.43407
G1 X93.603 Y100.525 E60.50748
G1 X91.918 Y101.365 E60.60141
G1 X90.58 Y101.56 E60.66887
G1 X19.418 Y101.6 E64.21916
G1 X17.709 Y101.224 E64.30646
G1 X16.237 Y100.416 E64.39023
G1 X15.405 Y99.764 E64.44297
G1 X14.483 Y98.617 E64.51639
G1 X13.635 Y96.903 E64.61179
G1 X13.44 Y95.58 E64.67851
G1 X13.4 Y14.503 E68.72346
G1 X13.762 Y12.743 E68.81311
G1 X14.599 Y11.234 E68.89919
G0 F3600 X14.949 Y11.428
G1 F1800 X15.535 Y10.683 E68.94648
G1 X16.617 Y9.812 E69.01578
G1 X18.202 Y9.022 E69.10414
G1 X19.478 Y8.836 E69.16847
G1 X90.455 Y8.8 E72.70953
G1 X92.117 Y9.142 E72.79418
G1 X93.572 Y9.949 E72.87719
G1 X94.317 Y10.535 E72.92448
G1 X95.188 Y11.617 E72.99378
G1 X95.978 Y13.202 E73.08213
G1 X96.164 Y14.478 E73.14646
G1 X96.2 Y95.455 E77.18642
G1 X95.858 Y97.117 E77.27108
G1 X95.051 Y98.572 E77.35408
G1 X94.465 Y99.317 E77.40137
G1 X93.383 Y100.188 E77.47067
G1 X91.798 Y100.978 E77.55902
G1 X90.522 Y101.164 E77.62336
G1 X19.463 Y101.2 E81.16851
G1 X17.849 Y100.845 E81.25095
G1 X16.484 Y100.101 E81.32851
G1 X15.686 Y99.476 E81.37908
G1 X14.821 Y98.399 E81.448
G1 X14.022 Y96.785 E81.53785
G1 X13.836 Y95.522 E81.60154
G1 X13.8 Y14.545 E85.6415
G1 X14.142 Y12.883 E85.72615
G1 X14.949 Y11.428 E85.80916
G0 F3600 X15.299 Y11.622
G1 F1800 X15.82 Y10.968 E85.85088
G1 X16.835 Y10.151 E85.91588
G1 X18.323 Y9.409 E85.99884
G1 X19.536 Y9.232 E86.05999
G1 X90.413 Y9.2 E89.59606
G1 X91.977 Y9.522 E89.67573
G1 X93.378 Y10.299 E89.75565
G1 X94.032 Y10.82 E89.79737
G1 X94.849 Y11.835 E89.86237
G1 X95.591 Y13.323 E89.94533
G1 X95.768 Y14.536 E90.00649
G1 X95.8 Y95.413 E94.04146
G1 X95.478 Y96.977 E94.12112
G1 X94.701 Y98.378 E94.20105
G1 X94.18 Y99.032 E94.24276
G1 X93.165 Y99.849 E94.30777
G1 X91.677 Y100.591 E94.39072
G1 X90.464 Y100.768 E94.45188
G1 X19.508 Y100.8 E97.99189
G1 X17.989 Y100.466 E98.06948
G1 X16.731 Y99.786 E98.14083
G1 X15.97 Y99.19 E98.18905
G1 X15.157 Y98.178 E98.25382
G1 X14.409 Y96.667 E98.33793
G1 X14.232 Y95.464 E98.3986
G1 X14.2 Y14.587 E102.43357
G1 X14.522 Y13.023 E102.51323
G1 X15.299 Y11.622 E102.59316
G0 F3600 X15.612 Y11.871
G1 F1800 X16.104 Y11.254 E102.63253
G1 X17.055 Y10.488 E102.69345
G1 X18.443 Y9.796 E102.77083
G1 X19.594 Y9.628 E102.82886
G1 X90.371 Y9.6 E106.35994
G1 X91.838 Y9.902 E106.43466
G1 X93.129 Y10.612 E106.50817
G1 X93.746 Y11.104 E106.54754
G1 X94.512 Y12.055 E106.60846
G1 X95.204 Y13.443 E106.68584
G1 X95.372 Y14.594 E106.74387
G1 X95.4 Y95.371 E110.77385
G1 X95.098 Y96.838 E110.84857
G1 X94.388 Y98.129 E110.92208
G1 X93.896 Y98.746 E110.96145
G1 X92.945 Y99.512 E111.02237
G1 X91.557 Y100.204 E111.09975
G1 X90.406 Y100.372 E111.15778
G1 X19.553 Y100.4 E114.69265
G1 X18.13 Y100.087 E114.76534
G1 X16.978 Y99.471 E114.83052
G1 X16.254 Y98.904 E114.8764
G1 X15.493 Y97.957 E114.93701
G1 X14.796 Y96.549 E115.01539
G1 X14.628 Y95.406 E115.07303
G1 X14.6 Y14.629 E119.10301
G1 X14.902 Y13.162 E119.17773
G1 X15.612 Y11.871 E119.25124
G0 F3600 X15.925 Y12.12
G1 F1800 X16.39 Y11.537 E119.28844
G1 X17.271 Y10.827 E119.34489
G1 X18.563 Y10.183 E119.41691
G1 X19.652 Y10.024 E119.47182
G1 X90.329 Y10 E122.99791
G1 X91.7 Y10.282 E123.06774
G1 X92.88 Y10.925 E123.13478
G1 X93.463 Y11.39 E123.17199
G1 X94.173 Y12.271 E123.22844
G1 X94.817 Y13.563 E123.30046
G1 X94.976 Y14.652 E123.35537
G1 X95 Y95.329 E127.38036
G1 X94.718 Y96.7 E127.45019
G1 X94.075 Y97.88 E127.51723
G1 X93.61 Y98.463 E127.55444
G1 X92.729 Y99.173 E127.61089
G1 X91.437 Y99.817 E127.68291
G1 X90.348 Y99.976 E127.73782
G1 X19.598 Y100 E131.26755
G1 X18.27 Y99.708 E131.33539
G1 X17.167 Y99.118 E131.39779
G1 X16.539 Y98.619 E131.43781
G1 X15.829 Y97.736 E131.49434
G1 X15.183 Y96.431 E131.56699
G1 X15.024 Y95.348 E131.6216
G1 X15 Y14.671 E135.64659
G1 X15.282 Y13.3 E135.71642
G1 X15.925 Y12.12 E135.78346
G0 F3600 X16.238 Y12.369
G1 F1800 X16.674 Y11.822 E135.81836
G1 X17.491 Y11.164 E135.8707
G1 X18.683 Y10.57 E135.93714
G1 X19.71 Y10.42 E135.98892
G1 X90.287 Y10.4 E139.51002
G1 X91.562 Y10.662 E139.57496
G1 X92.631 Y11.238 E139.63554
G1 X93.178 Y11.674 E139.67044
G1 X93.836 Y12.491 E139.72278
G1 X94.43 Y13.683 E139.78922
G1 X94.58 Y14.71 E139.841
G1 X94.6 Y95.287 E143.86101
G1 X94.338 Y96.562 E143.92595
G1 X93.762 Y97.631 E143.98653
G1 X93.326 Y98.178 E144.02143
G1 X92.509 Y98.836 E144.07376
G1 X91.317 Y99.43 E144.14021
G1 X90.29 Y99.58 E144.19199
G1 X19.643 Y99.6 E147.71658
G1 X18.41 Y99.329 E147.77956
G1 X17.356 Y98.765 E147.8392
G1 X16.825 Y98.336 E147.87326
G1 X16.165 Y97.515 E147.92581
G1 X15.57 Y96.313 E147.99273
G1 X15.42 Y95.29 E148.04431
G1 X15.4 Y14.713 E152.06431
G1 X15.662 Y13.438 E152.12925
G1 X16.238 Y12.369 E152.18983
G0 F3600 X16.59 Y12.559
G1 F1800 X16.956 Y12.109 E152.21877
G1 X17.711 Y11.501 E152.26713
G1 X18.803 Y10.957 E152.328
G1 X19.768 Y10.816 E152.37666
G1 X90.246 Y10.8 E155.89282
G1 X91.424 Y11.042 E155.95282
G1 X92.441 Y11.59 E156.01045
G1 X92.891 Y11.956 E156.03939
G1 X93.499 Y12.711 E156.08775
G1 X94.043 Y13.803 E156.14862
G1 X94.184 Y14.768 E156.19727
G1 X94.2 Y95.246 E160.21234
G1 X93.958 Y96.424 E160.27234
G1 X93.41 Y97.441 E160.32997
G1 X93.044 Y97.891 E160.35891
G1 X92.289 Y98.499 E160.40727
G1 X91.197 Y99.043 E160.46814
G1 X90.232 Y99.184 E160.51679
G1 X19.688 Y99.2 E164.03625
G1 X18.55 Y98.95 E164.09438
G1 X17.578 Y98.43 E164.14937
G1 X17.111 Y98.052 E164.17935
G1 X16.501 Y97.294 E164.22789
G1 X15.957 Y96.195 E164.28907
G1 X15.816 Y95.232 E164.33762
G1 X15.8 Y14.754 E168.35269
G1 X16.042 Y13.576 E168.41269
G1 X16.59 Y12.559 E168.47032
G0 F3600 X16.905 Y12.806
G1 F1800 X17.207 Y12.421 E168.49473
G1 X17.931 Y11.838 E168.54111
G1 X18.923 Y11.344 E168.5964
G1 X19.826 Y11.212 E168.64193
G1 X90.205 Y11.2 E172.15315
G1 X91.286 Y11.422 E172.20821
G1 X92.194 Y11.905 E172.25952
G1 X92.579 Y12.207 E172.28393
G1 X93.162 Y12.931 E172.3303
G1 X93.656 Y13.923 E172.38559
G1 X93.788 Y14.826 E172.43112
G1 X93.8 Y95.205 E176.44125
G1 X93.578 Y96.286 E176.4963
G1 X93.095 Y97.194 E176.54761
G1 X92.793 Y97.579 E176.57203
G1 X92.069 Y98.162 E176.6184
G1 X91.077 Y98.656 E176.67369
G1 X90.174 Y98.788 E176.71922
G1 X19.733 Y98.8 E180.23354
G1 X18.69 Y98.571 E180.28681
G1 X17.767 Y98.077 E180.33904
G1 X17.398 Y97.77 E180.36299
G1 X16.839 Y97.075 E180.40749
G1 X16.344 Y96.076 E180.46311
G1 X16.212 Y95.174 E180.50859
G1 X16.2 Y14.795 E184.51871
G1 X16.422 Y13.714 E184.57377
G1 X16.905 Y12.806 E184.62508
G0 F3600 X17.226 Y13.045
G1 F1800 X17.458 Y12.733 E184.64448
G1 X18.151 Y12.175 E184.68887
G1 X19.043 Y11.731 E184.73858
G1 X19.884 Y11.608 E184.78098
G1 X90.164 Y11.6 E188.28726
G1 X91.15 Y11.802 E188.33748
G1 X91.955 Y12.226 E188.38287
G1 X92.267 Y12.458 E188.40227
G1 X92.825 Y13.151 E188.44666
G1 X93.269 Y14.043 E188.49637
G1 X93.392 Y14.884 E188.53877
G1 X93.4 Y95.164 E192.54396
G1 X93.198 Y96.15 E192.59417
G1 X92.774 Y96.955 E192.63956
G1 X92.542 Y97.267 E192.65896
G1 X91.849 Y97.825 E192.70335
G1 X90.957 Y98.269 E192.75306
G1 X90.116 Y98.392 E192.79546
G1 X19.778 Y98.4 E196.30464
G1 X18.83 Y98.192 E196.35306
G1 X17.956 Y97.724 E196.40252
G1 X17.71 Y97.519 E196.4185
G1 X17.177 Y96.856 E196.46094
G1 X16.731 Y95.957 E196.51101
G1 X16.608 Y95.116 E196.55341
G1 X16.6 Y14.836 E200.5586
G1 X16.802 Y13.85 E200.60881
G1 X17.226 Y13.045 E200.6542
G0 F3600 X17.58 Y13.232
G1 F1800 X17.749 Y13.012 E200.66804
G1 X18.367 Y12.514 E200.70764
G1 X19.163 Y12.118 E200.75199
G1 X19.942 Y12.004 E200.79127
G1 X90.123 Y12 E204.29262
G1 X91.013 Y12.182 E204.33794
G1 X91.768 Y12.58 E204.38052
G1 X91.988 Y12.749 E204.39436
G1 X92.486 Y13.367 E204.43395
G1 X92.882 Y14.163 E204.47831
G1 X92.996 Y14.942 E204.51759
G1 X93 Y95.123 E208.51784
G1 X92.818 Y96.013 E208.56316
G1 X92.42 Y96.768 E208.60574
G1 X92.251 Y96.988 E208.61958
G1 X91.633 Y97.486 E208.65917
G1 X90.837 Y97.882 E208.70353
G1 X90.058 Y97.996 E208.74281
G1 X19.823 Y98 E212.24685
G1 X18.97 Y97.813 E212.29041
G1 X18.145 Y97.371 E212.33711
G1 X18.022 Y97.268 E212.34511
G1 X17.515 Y96.637 E212.3855
G1 X17.118 Y95.837 E212.43005
G1 X17.004 Y95.058 E212.46933
G1 X17 Y14.877 E216.46958
G1 X17.182 Y13.987 E216.5149
G1 X17.58 Y13.232 E216.55748
G0 F3600 X17.934 Y13.418
G1 F1800 X18.037 Y13.293 E216.56556
G1 X18.583 Y12.853 E216.60054
G1 X19.283 Y12.505 E216.63954
G1 X20 Y12.4 E216.6757
G1 X90.082 Y12.4 E220.1721
G1 X90.878 Y12.563 E220.21264
G1 X91.582 Y12.934 E220.25234
G1 X91.707 Y13.037 E220.26042
G1 X92.147 Y13.583 E220.2954
G1 X92.495 Y14.283 E220.33441
G1 X92.6 Y15 E220.37056
G1 X92.6 Y95.082 E224.36587
G1 X92.437 Y95.878 E224.4064
G1 X92.066 Y96.582 E224.4461
G1 X91.963 Y96.707 E224.45418
G1 X91.417 Y97.147 E224.48917
G1 X90.717 Y97.495 E224.52817
G1 X90 Y97.6 E224.56432
G1 X19.868 Y97.6 E228.06322
G1 X19.11 Y97.434 E228.10193
G1 X18.334 Y97.018 E228.14586
G1 X17.854 Y96.42 E228.18412
G1 X17.505 Y95.717 E228.22327
G1 X17.4 Y95 E228.25943
G1 X17.4 Y14.918 E232.25473
G1 X17.563 Y14.122 E232.29527
G1 X17.934 Y13.418 E232.33497
G0 F3600 X18.288 Y13.604
G1 F1800 X18.799 Y13.192 E232.36772
G1 X19.405 Y12.891 E232.40148
G1 X20 Y12.8 E232.43151
G1 X90.041 Y12.8 E235.92587
G1 X90.743 Y12.944 E235.96162
G1 X91.396 Y13.288 E235.99844
G1 X91.808 Y13.799 E236.03119
G1 X92.109 Y14.405 E236.06495
G1 X92.2 Y15 E236.09498
G1 X92.2 Y95.041 E240.08824
G1 X92.056 Y95.743 E240.12399
G1 X91.712 Y96.396 E240.16081
G1 X91.201 Y96.808 E240.19356
G1 X90.595 Y97.109 E240.22732
G1 X90 Y97.2 E240.25735
G1 X19.913 Y97.2 E243.754
G1 X19.247 Y97.054 E243.78802
G1 X18.597 Y96.705 E243.82483
G1 X18.192 Y96.201 E243.85708
G1 X17.891 Y95.595 E243.89084
G1 X17.8 Y95 E243.92087
G1 X17.8 Y14.959 E247.91413
G1 X17.944 Y14.257 E247.94989
G1 X18.288 Y13.604 E247.98671
G0 F3600 X18.605 Y13.862
G1 F1800 X18.977 Y13.55 E248.01093
G1 X19.526 Y13.277 E248.04152
G1 X20 Y13.2 E248.06548
G1 X90 Y13.2 E251.55779
G1 X90.606 Y13.324 E251.58865
G1 X91.138 Y13.605 E251.61867
G1 X91.45 Y13.977 E251.64289
G1 X91.723 Y14.526 E251.67348
G1 X91.8 Y15 E251.69744
G1 X91.8 Y95 E255.68865
G1 X91.676 Y95.606 E255.71951
G1 X91.395 Y96.138 E255.74953
G1 X91.023 Y96.45 E255.77375
G1 X90.474 Y96.723 E255.80434
G1 X90 Y96.8 E255.8283
G1 X19.958 Y96.8 E259.32271
G1 X19.384 Y96.674 E259.35203
G1 X18.859 Y96.392 E259.38176
G1 X18.55 Y96.023 E259.40577
G1 X18.277 Y95.474 E259.43636
G1 X18.2 Y95 E259.46032
G1 X18.2 Y15 E263.45154
G1 X18.324 Y14.394 E263.4824
G1 X18.605 Y13.862 E263.51241
G0 F3600 X18.923 Y14.117
G1 F1800 X19.155 Y13.908 E263.52799
G1 X19.649 Y13.662 E263.55552
G1 X20 Y13.6 E263.57331
G1 X90 Y13.6 E267.06562
G1 X90.419 Y13.678 E267.08688
G1 X90.883 Y13.923 E267.11306
G1 X91.092 Y14.155 E267.12864
G1 X91.338 Y14.649 E267.15617
G1 X91.4 Y15 E267.17396
G1 X91.4 Y95 E271.16517
G1 X91.322 Y95.419 E271.18643
G1 X91.077 Y95.883 E271.21261
G1 X90.845 Y96.092 E271.22819
G1 X90.351 Y96.338 E271.25572
G1 X90 Y96.4 E271.27351
G1 X19.958 Y96.4 E274.76792
G1 X19.477 Y96.285 E274.79259
G1 X19.117 Y96.077 E274.81333
G1 X18.908 Y95.845 E274.82891
G1 X18.662 Y95.351 E274.85644
G1 X18.6 Y95 E274.87423
G1 X18.6 Y15 E278.86544
G1 X18.678 Y14.581 E278.8867
G1 X18.923 Y14.117 E278.91288
G0 F3600 X19.207 Y14.399
G1 F1800 X19.07 Y14.662 E278.92768
G1 X19 Y15 E278.9449
G1 X19 Y95 E282.93611
G1 X19.054 Y95.273 E282.95
G1 X19.26 Y95.655 E282.97165
G1 X19.399 Y95.793 E282.98142
G1 X19.662 Y95.93 E282.99622
G1 X20 Y96 E283.01344
G1 X90 Y96 E286.50575
G1 X90.273 Y95.946 E286.51964
G1 X90.655 Y95.74 E286.54129
G1 X90.793 Y95.601 E286.55106
G1 X90.93 Y95.338 E286.56586
G1 X91 Y95 E286.58308
G1 X91 Y15 E290.57429
G1 X90.946 Y14.727 E290.58818
G1 X90.74 Y14.345 E290.60983
G1 X90.601 Y14.207 E290.6196
G1 X90.338 Y14.07 E290.6344
G1 X90 Y14 E290.65162
G1 X20 Y14 E294.14393
G1 X19.727 Y14.054 E294.15781
G1 X19.345 Y14.26 E294.17947
G1 X19.207 Y14.399 E294.18924
G0 F3600 X19.839 Y14.881
G1 F1800 X20 Y14.8 E294.19823
G1 X90 Y14.8 E297.69054
G1 X90.119 Y14.839 E297.69679
G1 X90.2 Y15 E297.70578
G1 X90.2 Y95 E301.697
G1 X90.161 Y95.119 E301.70325
G1 X90 Y95.2 E301.71224
G1 X20 Y95.2 E305.20455
G1 X19.881 Y95.161 E305.2108
G1 X19.8 Y95 E305.21979
G1 X19.8 Y15 E309.21101
G1 X19.839 Y14.881 E309.21726
G0 F3600 X19.459 Y14.756
G1 F1800 X19.55 Y14.604 E309.2261
G1 X19.82 Y14.443 E309.24178
G1 X20 Y14.4 E309.25101
G1 X90 Y14.4 E312.74333
