;FLAVOR:Marlin
;TIME:5047
;Filament used: 3.06388m
;Layer height: 0.1
;MINX:19.2
;MINY:19.2
;MINZ:0.3
;MAXX:90.8
;MAXY:90.8
;MAXZ:5
;TARGET_MACHINE.NAME:Unknown
;Generated with Cura_SteamEngine 5.10.2
M104 S200
M105
M109 S200
G28 ;Home
G1 Z15.0 F6000 ;Move the platform down 15mm
;Prime the extruder
G92 E0
G1 F200 E3
G92 E0
M82 ;absolute extrusion mode
G92 E0
G92 E0
G1 F1500 E-6.5
;LAYER_COUNT:48
;LAYER:0
M107
G0 F3600 X26.393 Y26.547 Z0.3
;TYPE:SKIRT
G1 F1500 E0
G1 F1800 X27.742 Y25.464 E0.08631
G1 X29.735 Y24.472 E0.19737
G1 X31.594 Y24.226 E0.29093
G1 X32.682 Y24.216 E0.34521
G1 X33.617 Y22.55 E0.44052
G1 X34.39 Y21.552 E0.5035
G1 X35.743 Y20.46 E0.59025
G1 X37.724 Y19.474 E0.70064
G1 X39.358 Y19.244 E0.78297
G1 X50.615 Y19.2 E1.34459
G1 X52.679 Y19.623 E1.4497
G1 X54.45 Y20.617 E1.55102
G1 X55.014 Y21.053 E1.58659
G1 X55.741 Y20.462 E1.63333
G1 X57.724 Y19.474 E1.74386
G1 X59.358 Y19.244 E1.82619
G1 X70.615 Y19.2 E2.3878
G1 X72.679 Y19.623 E2.49292
G1 X74.45 Y20.617 E2.59424
G1 X75.451 Y21.391 E2.65737
G1 X76.538 Y22.745 E2.74399
G1 X77.263 Y24.2 E2.8251
G1 X78.622 Y24.2 E2.8929
G1 X80.679 Y24.622 E2.99766
G1 X82.45 Y25.617 E3.099
G1 X83.453 Y26.393 E3.16227
G1 X84.536 Y27.742 E3.24858
G1 X85.528 Y29.735 E3.35965
G1 X85.774 Y31.594 E3.4532
G1 X85.784 Y32.682 E3.50748
G1 X87.45 Y33.617 E3.6028
G1 X88.448 Y34.39 E3.66577
G1 X89.54 Y35.743 E3.75252
G1 X90.526 Y37.724 E3.86292
G1 X90.756 Y39.358 E3.94524
G1 X90.8 Y50.615 E4.50686
G1 X90.377 Y52.679 E4.61197
G1 X89.383 Y54.45 E4.71329
G1 X88.947 Y55.014 E4.74886
G1 X89.538 Y55.741 E4.7956
G1 X90.526 Y57.724 E4.90613
G1 X90.756 Y59.358 E4.98846
G1 X90.8 Y70.615 E5.55008
G1 X90.377 Y72.679 E5.65519
G1 X89.383 Y74.45 E5.75651
G1 X88.609 Y75.451 E5.81964
G1 X87.255 Y76.538 E5.90627
G1 X85.8 Y77.263 E5.98737
G1 X85.8 Y78.622 E6.05517
G1 X85.378 Y80.679 E6.15993
G1 X84.383 Y82.45 E6.26128
G1 X83.607 Y83.453 E6.32454
G1 X82.258 Y84.536 E6.41085
G1 X80.265 Y85.528 E6.52192
G1 X78.406 Y85.774 E6.61547
G1 X77.318 Y85.784 E6.66976
G1 X76.383 Y87.45 E6.76507
G1 X75.61 Y88.448 E6.82805
G1 X74.257 Y89.54 E6.91479
G1 X72.276 Y90.526 E7.02519
G1 X70.642 Y90.756 E7.10751
G1 X59.385 Y90.8 E7.66913
G1 X57.321 Y90.377 E7.77424
G1 X55.55 Y89.383 E7.87557
G1 X54.986 Y88.947 E7.91113
G1 X54.257 Y89.539 E7.95798
G1 X52.279 Y90.526 E8.06827
G1 X50.698 Y90.752 E8.14795
G1 X39.289 Y90.8 E8.71715
G1 X37.282 Y90.361 E8.81965
G1 X35.496 Y89.361 E8.92177
G1 X34.558 Y88.626 E8.98122
G1 X33.455 Y87.257 E9.06893
G1 X32.735 Y85.8 E9.15001
G1 X31.378 Y85.8 E9.21771
G1 X29.321 Y85.378 E9.32247
G1 X27.55 Y84.383 E9.42382
G1 X26.547 Y83.607 E9.48709
G1 X25.464 Y82.258 E9.57339
G1 X24.472 Y80.265 E9.68446
G1 X24.226 Y78.406 E9.77801
G1 X24.216 Y77.318 E9.8323
G1 X22.55 Y76.383 E9.92761
G1 X21.552 Y75.61 E9.99059
G1 X20.46 Y74.257 E10.07733
G1 X19.474 Y72.276 E10.18773
G1 X19.244 Y70.642 E10.27005
G1 X19.2 Y59.385 E10.83167
G1 X19.623 Y57.321 E10.93679
G1 X20.617 Y55.55 E11.03811
G1 X21.053 Y54.986 E11.07367
G1 X20.462 Y54.259 E11.12042
G1 X19.474 Y52.276 E11.23095
G1 X19.244 Y50.642 E11.31327
G1 X19.2 Y39.385 E11.87489
G1 X19.623 Y37.321 E11.98
G1 X20.617 Y35.55 E12.08133
G1 X21.391 Y34.549 E12.14445
G1 X22.745 Y33.462 E12.23108
G1 X24.2 Y32.737 E12.31218
G1 X24.2 Y31.378 E12.37998
G1 X24.622 Y29.321 E12.48474
G1 X25.617 Y27.55 E12.58609
G1 X26.393 Y26.547 E12.64936
G0 F3600 X26.679 Y26.831
G1 F1800 X27.961 Y25.801 E12.7314
G1 X29.852 Y24.86 E12.83678
G1 X31.646 Y24.623 E12.92706
G1 X32.985 Y24.614 E12.99387
G1 X33.062 Y24.355 E13.00735
G1 X33.933 Y22.795 E13.09648
G1 X34.678 Y21.833 E13.15719
G1 X35.96 Y20.799 E13.23936
G1 X37.843 Y19.861 E13.34431
G1 X39.36 Y19.644 E13.42077
G1 X50.575 Y19.6 E13.98029
G1 X52.539 Y20.003 E14.08031
G1 X54.205 Y20.933 E14.17551
G1 X55.02 Y21.563 E14.2269
G1 X55.961 Y20.799 E14.28737
G1 X57.843 Y19.861 E14.39228
G1 X59.36 Y19.644 E14.46873
G1 X70.575 Y19.6 E15.02826
G1 X72.539 Y20.003 E15.12828
G1 X74.205 Y20.933 E15.22347
G1 X75.167 Y21.677 E15.28414
G1 X76.201 Y22.964 E15.36651
G1 X77.015 Y24.6 E15.45767
G1 X78.581 Y24.6 E15.5358
G1 X80.538 Y25.002 E15.63548
G1 X82.205 Y25.933 E15.73073
G1 X83.169 Y26.679 E15.79155
G1 X84.199 Y27.961 E15.87359
G1 X85.14 Y29.852 E15.97897
G1 X85.377 Y31.646 E16.06925
G1 X85.386 Y32.985 E16.13606
G1 X85.645 Y33.062 E16.14954
G1 X87.205 Y33.933 E16.23867
G1 X88.167 Y34.678 E16.29938
G1 X89.201 Y35.96 E16.38155
G1 X90.139 Y37.843 E16.4865
G1 X90.356 Y39.36 E16.56296
G1 X90.4 Y50.575 E17.12248
G1 X89.997 Y52.539 E17.2225
G1 X89.067 Y54.205 E17.31769
G1 X88.437 Y55.02 E17.36909
G1 X89.201 Y55.961 E17.42956
G1 X90.139 Y57.843 E17.53447
G1 X90.356 Y59.36 E17.61092
G1 X90.4 Y70.575 E18.17044
G1 X89.997 Y72.539 E18.27047
G1 X89.067 Y74.205 E18.36566
G1 X88.323 Y75.167 E18.42633
G1 X87.036 Y76.201 E18.5087
G1 X85.4 Y77.015 E18.59986
G1 X85.4 Y78.581 E18.67799
G1 X84.998 Y80.538 E18.77767
G1 X84.067 Y82.205 E18.87292
G1 X83.321 Y83.169 E18.93374
G1 X82.039 Y84.199 E19.01578
G1 X80.148 Y85.14 E19.12116
G1 X78.354 Y85.377 E19.21144
G1 X77.015 Y85.386 E19.27825
G1 X76.938 Y85.645 E19.29173
G1 X76.067 Y87.205 E19.38086
G1 X75.322 Y88.167 E19.44157
G1 X74.04 Y89.201 E19.52374
G1 X72.157 Y90.139 E19.62869
G1 X70.64 Y90.356 E19.70515
G1 X59.425 Y90.4 E20.26467
G1 X57.461 Y89.997 E20.36469
G1 X55.795 Y89.067 E20.45988
G1 X54.98 Y88.437 E20.51128
G1 X54.039 Y89.201 E20.57175
G1 X52.158 Y90.139 E20.67661
G1 X50.696 Y90.352 E20.75032
G1 X39.333 Y90.4 E21.31723
G1 X37.424 Y89.982 E21.41473
G1 X35.743 Y89.046 E21.51072
G1 X34.839 Y88.337 E21.56803
G1 X33.796 Y87.043 E21.65095
G1 X32.984 Y85.4 E21.74239
G1 X31.419 Y85.4 E21.82046
G1 X29.462 Y84.998 E21.92014
G1 X27.795 Y84.067 E22.0154
G1 X26.831 Y83.321 E22.07621
G1 X25.801 Y82.039 E22.15825
G1 X24.86 Y80.148 E22.26363
G1 X24.623 Y78.354 E22.35391
G1 X24.614 Y77.015 E22.42072
G1 X24.355 Y76.938 E22.4342
G1 X22.795 Y76.067 E22.52334
G1 X21.833 Y75.322 E22.58404
G1 X20.799 Y74.04 E22.66621
G1 X19.861 Y72.157 E22.77116
G1 X19.644 Y70.64 E22.84762
G1 X19.6 Y59.425 E23.40714
G1 X20.003 Y57.461 E23.50717
G1 X20.933 Y55.795 E23.60236
G1 X21.563 Y54.98 E23.65375
G1 X20.799 Y54.039 E23.71422
G1 X19.861 Y52.157 E23.81913
G1 X19.644 Y50.64 E23.89558
G1 X19.6 Y39.425 E24.45511
G1 X20.003 Y37.461 E24.55513
G1 X20.933 Y35.795 E24.65032
G1 X21.677 Y34.833 E24.711
G1 X22.964 Y33.799 E24.79336
G1 X24.6 Y32.985 E24.88453
G1 X24.6 Y31.419 E24.96265
G1 X25.002 Y29.462 E25.06233
G1 X25.933 Y27.795 E25.15759
G1 X26.679 Y26.831 E25.2184
G0 F3600 X26.966 Y27.113
G1 F1800 X28.178 Y26.14 E25.29594
G1 X29.969 Y25.248 E25.39576
G1 X31.698 Y25.02 E25.48277
G1 X33.3 Y25.013 E25.56269
G1 X33.412 Y24.549 E25.58651
G1 X34.249 Y23.04 E25.6726
G1 X34.966 Y22.114 E25.73103
G1 X36.177 Y21.138 E25.80862
G1 X37.962 Y20.248 E25.90813
G1 X39.362 Y20.044 E25.97872
G1 X50.535 Y20 E26.53614
G1 X52.398 Y20.382 E26.63102
G1 X53.96 Y21.249 E26.72015
G1 X54.848 Y21.936 E26.77616
G1 X54.994 Y22.1 E26.78712
G1 X56.181 Y21.136 E26.86341
G1 X57.962 Y20.248 E26.96269
G1 X59.362 Y20.044 E27.03328
G1 X70.535 Y20 E27.59071
G1 X72.398 Y20.382 E27.68559
G1 X73.96 Y21.249 E27.77471
G1 X74.885 Y21.964 E27.83304
G1 X75.862 Y23.181 E27.9109
G1 X76.694 Y24.853 E28.00408
G1 X76.738 Y25 E28.01173
G1 X78.539 Y25 E28.10158
G1 X80.397 Y25.382 E28.19622
G1 X81.96 Y26.249 E28.28539
G1 X82.887 Y26.966 E28.34386
G1 X83.86 Y28.178 E28.4214
G1 X84.752 Y29.969 E28.52122
G1 X84.98 Y31.698 E28.60823
G1 X84.987 Y33.3 E28.68815
G1 X85.451 Y33.412 E28.71197
G1 X86.96 Y34.249 E28.79806
G1 X87.886 Y34.966 E28.85648
G1 X88.862 Y36.177 E28.93408
G1 X89.752 Y37.962 E29.03359
G1 X89.956 Y39.362 E29.10417
G1 X90 Y50.535 E29.6616
G1 X89.618 Y52.398 E29.75648
G1 X88.751 Y53.96 E29.84561
G1 X88.064 Y54.848 E29.90162
G1 X87.9 Y54.994 E29.91258
G1 X88.864 Y56.181 E29.98887
G1 X89.752 Y57.962 E30.08815
G1 X89.956 Y59.362 E30.15874
G1 X90 Y70.535 E30.71616
G1 X89.618 Y72.398 E30.81104
G1 X88.751 Y73.96 E30.90017
G1 X88.036 Y74.885 E30.9585
G1 X86.819 Y75.862 E31.03636
G1 X85.147 Y76.694 E31.12953
G1 X85 Y76.738 E31.13719
G1 X85 Y78.539 E31.22704
G1 X84.618 Y80.397 E31.32168
G1 X83.751 Y81.96 E31.41085
G1 X83.034 Y82.887 E31.46932
G1 X81.822 Y83.86 E31.54686
G1 X80.031 Y84.752 E31.64668
G1 X78.302 Y84.98 E31.73369
G1 X76.7 Y84.987 E31.81361
G1 X76.588 Y85.451 E31.83743
G1 X75.751 Y86.96 E31.92352
G1 X75.034 Y87.886 E31.98194
G1 X73.823 Y88.862 E32.05954
G1 X72.038 Y89.752 E32.15905
G1 X70.638 Y89.956 E32.22963
G1 X59.465 Y90 E32.78706
G1 X57.602 Y89.618 E32.88194
G1 X56.04 Y88.751 E32.97107
G1 X55.152 Y88.064 E33.02708
G1 X55.006 Y87.9 E33.03804
G1 X53.819 Y88.864 E33.11433
G1 X52.038 Y89.752 E33.21361
G1 X50.638 Y89.956 E33.2842
G1 X39.377 Y90 E33.84601
G1 X37.567 Y89.603 E33.93846
G1 X35.99 Y88.731 E34.02836
G1 X35.12 Y88.048 E34.08355
G1 X34.137 Y86.829 E34.16167
G1 X33.233 Y85 E34.26346
G1 X31.461 Y85 E34.35187
G1 X29.603 Y84.618 E34.4465
G1 X28.04 Y83.751 E34.53567
G1 X27.113 Y83.034 E34.59414
G1 X26.14 Y81.822 E34.67168
G1 X25.248 Y80.031 E34.7715
G1 X25.02 Y78.302 E34.85851
G1 X25.013 Y76.7 E34.93844
G1 X24.549 Y76.588 E34.96225
G1 X23.04 Y75.751 E35.04834
G1 X22.114 Y75.034 E35.10677
G1 X21.138 Y73.823 E35.18436
G1 X20.248 Y72.038 E35.28387
G1 X20.044 Y70.638 E35.35446
G1 X20 Y59.465 E35.91188
G1 X20.382 Y57.602 E36.00676
G1 X21.249 Y56.04 E36.09589
G1 X21.936 Y55.152 E36.15191
G1 X22.1 Y55.006 E36.16286
G1 X21.136 Y53.819 E36.23915
G1 X20.248 Y52.038 E36.33844
G1 X20.044 Y50.638 E36.40902
G1 X20 Y39.465 E36.96645
G1 X20.382 Y37.602 E37.06133
G1 X21.249 Y36.04 E37.15045
G1 X21.964 Y35.115 E37.20878
G1 X23.181 Y34.138 E37.28664
G1 X24.853 Y33.306 E37.37982
G1 X25 Y33.262 E37.38747
G1 X25 Y31.461 E37.47732
G1 X25.382 Y29.603 E37.57196
G1 X26.249 Y28.04 E37.66113
G1 X26.966 Y27.113 E37.7196
G0 F3600 X27.251 Y27.398
G1 F1800 X28.397 Y26.477 E37.79295
G1 X30.088 Y25.635 E37.88719
G1 X31.7 Y25.42 E37.96833
G1 X33.627 Y25.411 E38.06447
G1 X33.762 Y24.743 E38.09847
G1 X34.599 Y23.234 E38.18456
G1 X35.251 Y22.398 E38.23745
G1 X36.397 Y21.475 E38.31086
G1 X38.082 Y20.635 E38.40479
G1 X39.42 Y20.44 E38.47225
G1 X50.495 Y20.4 E39.02479
G1 X52.257 Y20.762 E39.11453
G1 X53.766 Y21.599 E39.20062
G1 X54.602 Y22.251 E39.25352
G1 X54.988 Y22.73 E39.28421
G1 X55.285 Y22.372 E39.30741
G1 X56.401 Y21.473 E39.37891
G1 X58.082 Y20.635 E39.47262
G1 X59.42 Y20.44 E39.54008
G1 X70.495 Y20.4 E40.09261
G1 X72.257 Y20.762 E40.18236
G1 X73.766 Y21.599 E40.26845
G1 X74.6 Y22.249 E40.3212
G1 X75.525 Y23.4 E40.39487
G1 X76.336 Y25.031 E40.48574
G1 X76.407 Y25.4 E40.50449
G1 X78.497 Y25.4 E40.60876
G1 X80.257 Y25.762 E40.69841
G1 X81.766 Y26.599 E40.7845
G1 X82.602 Y27.251 E40.83739
G1 X83.523 Y28.397 E40.91074
G1 X84.365 Y30.088 E41.00498
G1 X84.58 Y31.7 E41.08612
G1 X84.589 Y33.627 E41.18226
G1 X85.257 Y33.762 E41.21626
G1 X86.766 Y34.599 E41.30235
G1 X87.602 Y35.251 E41.35524
G1 X88.525 Y36.397 E41.42865
G1 X89.365 Y38.082 E41.52259
G1 X89.56 Y39.42 E41.59004
G1 X89.6 Y50.495 E42.14258
G1 X89.238 Y52.257 E42.23232
G1 X88.401 Y53.766 E42.31841
G1 X87.749 Y54.602 E42.37131
G1 X87.27 Y54.988 E42.402
G1 X87.628 Y55.285 E42.4252
G1 X88.527 Y56.401 E42.4967
G1 X89.365 Y58.082 E42.59041
G1 X89.56 Y59.42 E42.65787
G1 X89.6 Y70.495 E43.2104
G1 X89.238 Y72.257 E43.30015
G1 X88.401 Y73.766 E43.38624
G1 X87.751 Y74.6 E43.43899
G1 X86.6 Y75.525 E43.51266
G1 X84.969 Y76.336 E43.60353
G1 X84.6 Y76.407 E43.62228
G1 X84.6 Y78.497 E43.72655
G1 X84.238 Y80.257 E43.8162
G1 X83.401 Y81.766 E43.90229
G1 X82.749 Y82.602 E43.95518
G1 X81.603 Y83.523 E44.02853
G1 X79.912 Y84.365 E44.12277
G1 X78.3 Y84.58 E44.20391
G1 X76.373 Y84.589 E44.30005
G1 X76.238 Y85.257 E44.33405
G1 X75.401 Y86.766 E44.42014
G1 X74.749 Y87.602 E44.47303
G1 X73.603 Y88.525 E44.54644
G1 X71.918 Y89.365 E44.64038
G1 X70.58 Y89.56 E44.70783
G1 X59.505 Y89.6 E45.26037
G1 X57.743 Y89.238 E45.35011
G1 X56.234 Y88.401 E45.4362
G1 X55.398 Y87.749 E45.4891
G1 X55.012 Y87.27 E45.51979
G1 X54.715 Y87.628 E45.543
G1 X53.599 Y88.527 E45.61449
G1 X51.918 Y89.365 E45.7082
G1 X50.58 Y89.56 E45.77566
G1 X39.421 Y89.6 E46.33239
G1 X37.709 Y89.224 E46.41983
G1 X36.237 Y88.416 E46.50361
G1 X35.403 Y87.762 E46.55648
G1 X34.476 Y86.611 E46.63022
G1 X33.657 Y84.955 E46.72239
G1 X33.589 Y84.6 E46.74042
G1 X31.503 Y84.6 E46.84449
G1 X29.743 Y84.238 E46.93414
G1 X28.234 Y83.401 E47.02023
G1 X27.398 Y82.749 E47.07312
G1 X26.477 Y81.603 E47.14647
G1 X25.635 Y79.912 E47.24071
G1 X25.42 Y78.3 E47.32185
G1 X25.411 Y76.373 E47.41799
G1 X24.743 Y76.238 E47.45199
G1 X23.234 Y75.401 E47.53808
G1 X22.398 Y74.749 E47.59097
G1 X21.475 Y73.603 E47.66438
G1 X20.635 Y71.918 E47.75831
G1 X20.44 Y70.58 E47.82577
G1 X20.4 Y59.505 E48.37831
G1 X20.762 Y57.743 E48.46805
G1 X21.599 Y56.234 E48.55414
G1 X22.251 Y55.398 E48.60704
G1 X22.73 Y55.012 E48.63773
G1 X22.372 Y54.715 E48.66093
G1 X21.473 Y53.599 E48.73243
G1 X20.635 Y51.918 E48.82614
G1 X20.44 Y50.58 E48.8936
G1 X20.4 Y39.505 E49.44613
G1 X20.762 Y37.743 E49.53588
G1 X21.599 Y36.234 E49.62197
G1 X22.249 Y35.4 E49.67472
G1 X23.4 Y34.475 E49.74839
G1 X25.031 Y33.664 E49.83926
G1 X25.4 Y33.593 E49.85801
G1 X25.4 Y31.503 E49.96228
G1 X25.762 Y29.743 E50.05193
G1 X26.599 Y28.234 E50.13802
G1 X27.251 Y27.398 E50.19091
G0 F3600 X27.535 Y27.683
G1 F1800 X28.616 Y26.814 E50.26011
G1 X30.207 Y26.022 E50.34877
G1 X31.702 Y25.82 E50.42404
G1 X33.954 Y25.81 E50.53639
G1 X34.142 Y24.883 E50.58358
G1 X34.949 Y23.428 E50.66659
G1 X35.535 Y22.683 E50.71388
G1 X36.617 Y21.812 E50.78317
G1 X38.202 Y21.022 E50.87153
G1 X39.478 Y20.836 E50.93586
G1 X50.454 Y20.8 E51.48346
G1 X52.117 Y21.142 E51.56816
G1 X53.572 Y21.949 E51.65117
G1 X54.317 Y22.535 E51.69846
G1 X54.989 Y23.37 E51.75193
G1 X55.536 Y22.683 E51.79574
G1 X56.617 Y21.812 E51.865
G1 X58.202 Y21.022 E51.95336
G1 X59.478 Y20.836 E52.01769
G1 X70.454 Y20.8 E52.56529
G1 X72.117 Y21.142 E52.64999
G1 X73.572 Y21.949 E52.733
G1 X74.317 Y22.535 E52.78029
G1 X75.186 Y23.617 E52.84952
G1 X75.978 Y25.209 E52.93823
G1 X76.057 Y25.8 E52.96798
G1 X78.455 Y25.8 E53.08762
G1 X80.117 Y26.142 E53.17227
G1 X81.572 Y26.949 E53.25528
G1 X82.317 Y27.535 E53.30257
G1 X83.186 Y28.616 E53.37177
G1 X83.978 Y30.207 E53.46043
G1 X84.18 Y31.702 E53.5357
G1 X84.19 Y33.954 E53.64805
G1 X85.117 Y34.142 E53.69524
G1 X86.572 Y34.949 E53.77825
G1 X87.317 Y35.535 E53.82554
G1 X88.188 Y36.617 E53.89484
G1 X88.978 Y38.202 E53.98319
G1 X89.164 Y39.478 E54.04752
G1 X89.2 Y50.454 E54.59512
G1 X88.858 Y52.117 E54.67982
G1 X88.051 Y53.572 E54.76283
G1 X87.465 Y54.317 E54.81012
G1 X86.63 Y54.989 E54.86359
G1 X87.317 Y55.536 E54.90741
G1 X88.188 Y56.617 E54.97666
G1 X88.978 Y58.202 E55.06502
G1 X89.164 Y59.478 E55.12935
G1 X89.2 Y70.454 E55.67695
G1 X88.858 Y72.117 E55.76165
G1 X88.051 Y73.572 E55.84466
G1 X87.465 Y74.317 E55.89195
G1 X86.383 Y75.186 E55.96119
G1 X84.791 Y75.978 E56.0499
G1 X84.2 Y76.057 E56.07964
G1 X84.2 Y78.455 E56.19928
G1 X83.858 Y80.117 E56.28394
G1 X83.051 Y81.572 E56.36694
G1 X82.465 Y82.317 E56.41423
G1 X81.384 Y83.186 E56.48343
G1 X79.793 Y83.978 E56.57209
G1 X78.298 Y84.18 E56.64736
G1 X76.046 Y84.19 E56.75971
G1 X75.858 Y85.117 E56.8069
G1 X75.051 Y86.572 E56.88991
G1 X74.465 Y87.317 E56.9372
G1 X73.383 Y88.188 E57.0065
G1 X71.798 Y88.978 E57.09485
G1 X70.522 Y89.164 E57.15918
G1 X59.546 Y89.2 E57.70678
G1 X57.883 Y88.858 E57.79148
G1 X56.428 Y88.051 E57.87449
G1 X55.683 Y87.465 E57.92178
G1 X55.011 Y86.63 E57.97525
G1 X54.464 Y87.317 E58.01907
G1 X53.383 Y88.188 E58.08833
G1 X51.798 Y88.978 E58.17668
G1 X50.522 Y89.164 E58.24101
G1 X39.465 Y89.2 E58.79265
