;FLAVOR:Marlin
;TIME:8858
;Filament used: 5.51758m
;Layer height: 0.1
;MINX:12.2
;MINY:7.2
;MINZ:0.3
;MAXX:97.8
;MAXY:102.8
;MAXZ:5
;TARGET_MACHINE.NAME:Unknown
;Generated with Cura_SteamEngine 5.10.2
M104 S200
M105
M109 S200
G28 ;Home
G1 Z15.0 F6000 ;Move the platform down 15mm
;Prime the extruder
G92 E0
G1 F200 E3
G92 E0
M82 ;absolute extrusion mode
G92 E0
G92 E0
G1 F1500 E-6.5
;LAYER_COUNT:48
;LAYER:0
M107
G0 F3600 X19.39 Y14.552 Z0.3
;TYPE:SKIRT
G1 F1500 E0
G1 F1800 X20.743 Y13.462 E0.08668
G1 X22.729 Y12.473 E0.19737
G1 X24.588 Y12.227 E0.29092
G1 X27.683 Y12.211 E0.44534
G1 X28.617 Y10.55 E0.54041
G1 X29.39 Y9.552 E0.60339
G1 X30.743 Y8.46 E0.69013
G1 X32.722 Y7.474 E0.80044
G1 X34.246 Y7.252 E0.87727
G1 X50.62 Y7.2 E1.69418
G1 X52.679 Y7.622 E1.79904
G1 X54.45 Y8.617 E1.90038
G1 X55.451 Y9.391 E1.96351
G1 X56.538 Y10.745 E2.05014
G1 X57.263 Y12.2 E2.13124
G1 X57.694 Y12.2 E2.15274
G1 X58.617 Y10.55 E2.24707
G1 X59.39 Y9.552 E2.31005
G1 X60.743 Y8.46 E2.39679
G1 X62.722 Y7.474 E2.5071
G1 X64.246 Y7.252 E2.58393
G1 X80.62 Y7.2 E3.40084
G1 X82.679 Y7.622 E3.5057
G1 X84.45 Y8.617 E3.60704
G1 X85.451 Y9.391 E3.67017
G1 X86.538 Y10.745 E3.7568
G1 X87.454 Y12.586 E3.85939
G1 X87.786 Y12.683 E3.87664
G1 X89.45 Y13.617 E3.97184
G1 X90.448 Y14.39 E4.03482
G1 X91.54 Y15.743 E4.12157
G1 X92.526 Y17.724 E4.23197
G1 X92.756 Y19.358 E4.31429
G1 X92.791 Y27.684 E4.72968
G1 X94.45 Y28.617 E4.82464
G1 X95.448 Y29.39 E4.88762
G1 X96.54 Y30.743 E4.97436
G1 X97.526 Y32.722 E5.08467
G1 X97.748 Y34.246 E5.1615
G1 X97.8 Y50.62 E5.97841
G1 X97.378 Y52.679 E6.08327
G1 X96.383 Y54.45 E6.18462
G1 X95.609 Y55.451 E6.24774
G1 X94.255 Y56.538 E6.33437
G1 X92.8 Y57.263 E6.41547
G1 X92.8 Y57.694 E6.43698
G1 X94.45 Y58.617 E6.5313
G1 X95.448 Y59.39 E6.59428
G1 X96.54 Y60.743 E6.68102
G1 X97.526 Y62.722 E6.79133
G1 X97.748 Y64.246 E6.86817
G1 X97.8 Y80.62 E7.68507
G1 X97.378 Y82.679 E7.78993
G1 X96.383 Y84.45 E7.89128
G1 X95.609 Y85.451 E7.9544
G1 X94.255 Y86.538 E8.04103
G1 X92.8 Y87.263 E8.12213
G1 X92.8 Y90.622 E8.28971
G1 X92.378 Y92.679 E8.39448
G1 X91.383 Y94.45 E8.49582
G1 X90.609 Y95.451 E8.55895
G1 X89.255 Y96.538 E8.64558
G1 X87.414 Y97.454 E8.74816
G1 X87.317 Y97.786 E8.76542
G1 X86.383 Y99.45 E8.86062
G1 X85.61 Y100.448 E8.9236
G1 X84.257 Y101.54 E9.01034
G1 X82.278 Y102.526 E9.12065
G1 X80.754 Y102.748 E9.19749
G1 X64.38 Y102.8 E10.01439
G1 X62.321 Y102.378 E10.11925
G1 X60.55 Y101.383 E10.2206
G1 X59.549 Y100.609 E10.28373
G1 X58.462 Y99.255 E10.37035
G1 X57.737 Y97.8 E10.45146
G1 X57.306 Y97.8 E10.47296
G1 X56.383 Y99.45 E10.56728
G1 X55.61 Y100.448 E10.63026
G1 X54.257 Y101.54 E10.71701
G1 X52.278 Y102.526 E10.82731
G1 X50.754 Y102.748 E10.90415
G1 X34.285 Y102.8 E11.7258
G1 X32.282 Y102.361 E11.8281
G1 X30.496 Y101.361 E11.93022
G1 X29.558 Y100.626 E11.98967
G1 X28.455 Y99.257 E12.07738
G1 X27.735 Y97.8 E12.15846
G1 X24.378 Y97.8 E12.32594
G1 X22.321 Y97.378 E12.4307
G1 X20.55 Y96.383 E12.53205
G1 X19.552 Y95.61 E12.59503
G1 X18.462 Y94.257 E12.68171
G1 X17.473 Y92.271 E12.7924
G1 X17.227 Y90.412 E12.88595
G1 X17.211 Y87.317 E13.04036
G1 X15.55 Y86.383 E13.13543
G1 X14.552 Y85.61 E13.19841
G1 X13.46 Y84.257 E13.28516
G1 X12.474 Y82.278 E13.39547
G1 X12.252 Y80.754 E13.4723
G1 X12.2 Y64.38 E14.28921
G1 X12.622 Y62.321 E14.39407
G1 X13.617 Y60.55 E14.49541
G1 X14.391 Y59.549 E14.55854
G1 X15.745 Y58.462 E14.64517
G1 X17.2 Y57.737 E14.72627
G1 X17.2 Y57.306 E14.74777
G1 X15.55 Y56.383 E14.8421
G1 X14.552 Y55.61 E14.90507
G1 X13.46 Y54.257 E14.99182
G1 X12.474 Y52.278 E15.10213
G1 X12.252 Y50.754 E15.17896
G1 X12.2 Y34.38 E15.99587
G1 X12.622 Y32.321 E16.10073
G1 X13.617 Y30.55 E16.20207
G1 X14.391 Y29.549 E16.2652
G1 X15.745 Y28.462 E16.35183
G1 X17.2 Y27.737 E16.43293
G1 X17.2 Y19.378 E16.84996
G1 X17.622 Y17.321 E16.95472
G1 X18.617 Y15.55 E17.05607
G1 X19.39 Y14.552 E17.11905
G0 F3600 X19.678 Y14.833
G1 F1800 X20.959 Y13.801 E17.20112
G1 X22.846 Y12.861 E17.30629
G1 X24.64 Y12.624 E17.39657
G1 X27.984 Y12.61 E17.56341
G1 X28.061 Y12.354 E17.57675
G1 X28.933 Y10.795 E17.66586
G1 X29.678 Y9.833 E17.72657
G1 X30.96 Y8.799 E17.80874
G1 X32.842 Y7.861 E17.91365
G1 X34.304 Y7.648 E17.98736
G1 X50.58 Y7.6 E18.79937
G1 X52.538 Y8.002 E18.8991
G1 X54.205 Y8.933 E18.99435
G1 X55.167 Y9.677 E19.05503
G1 X56.201 Y10.964 E19.13739
G1 X57.015 Y12.6 E19.22856
G1 X57.986 Y12.6 E19.277
G1 X58.061 Y12.354 E19.28983
G1 X58.933 Y10.795 E19.37895
G1 X59.678 Y9.833 E19.43965
G1 X60.96 Y8.799 E19.52182
G1 X62.842 Y7.861 E19.62673
G1 X64.304 Y7.648 E19.70044
G1 X80.58 Y7.6 E20.51246
G1 X82.538 Y8.002 E20.61218
G1 X84.205 Y8.933 E20.70744
G1 X85.167 Y9.677 E20.76811
G1 X86.201 Y10.964 E20.85048
G1 X87.052 Y12.676 E20.94586
G1 X87.116 Y12.916 E20.95825
G1 X87.591 Y13.032 E20.98265
G1 X89.205 Y13.933 E21.07487
G1 X90.167 Y14.678 E21.13557
G1 X91.201 Y15.96 E21.21774
G1 X92.139 Y17.843 E21.32269
G1 X92.356 Y19.36 E21.39915
G1 X92.392 Y27.985 E21.82945
G1 X92.646 Y28.061 E21.84268
G1 X94.205 Y28.933 E21.9318
G1 X95.167 Y29.678 E21.9925
G1 X96.201 Y30.96 E22.07467
G1 X97.139 Y32.842 E22.17958
G1 X97.352 Y34.304 E22.25329
G1 X97.4 Y50.58 E23.06531
G1 X96.998 Y52.538 E23.16503
G1 X96.067 Y54.205 E23.26029
G1 X95.323 Y55.167 E23.32096
G1 X94.036 Y56.201 E23.40333
G1 X92.4 Y57.015 E23.49449
G1 X92.4 Y57.986 E23.54294
G1 X92.646 Y58.061 E23.55577
G1 X94.205 Y58.933 E23.64489
G1 X95.167 Y59.678 E23.70559
G1 X96.201 Y60.96 E23.78776
G1 X97.139 Y62.842 E23.89267
G1 X97.352 Y64.304 E23.96638
G1 X97.4 Y80.58 E24.7784
G1 X96.998 Y82.538 E24.87812
G1 X96.067 Y84.205 E24.97338
G1 X95.323 Y85.167 E25.03405
G1 X94.036 Y86.201 E25.11641
G1 X92.4 Y87.015 E25.20758
G1 X92.4 Y90.581 E25.38549
G1 X91.998 Y92.538 E25.48516
G1 X91.067 Y94.205 E25.58042
G1 X90.323 Y95.167 E25.64109
G1 X89.036 Y96.201 E25.72346
G1 X87.324 Y97.052 E25.81884
G1 X87.084 Y97.116 E25.83123
G1 X86.968 Y97.591 E25.85563
G1 X86.067 Y99.205 E25.94785
G1 X85.322 Y100.167 E26.00855
G1 X84.04 Y101.201 E26.09072
G1 X82.158 Y102.139 E26.19563
G1 X80.696 Y102.352 E26.26934
G1 X64.42 Y102.4 E27.08136
G1 X62.462 Y101.998 E27.18108
G1 X60.795 Y101.067 E27.27634
G1 X59.833 Y100.323 E27.33701
G1 X58.799 Y99.036 E27.41937
G1 X57.985 Y97.4 E27.51054
G1 X57.014 Y97.4 E27.55898
G1 X56.939 Y97.646 E27.57181
G1 X56.067 Y99.205 E27.66093
G1 X55.322 Y100.167 E27.72164
G1 X54.04 Y101.201 E27.80381
G1 X52.158 Y102.139 E27.90872
G1 X50.696 Y102.352 E27.98242
G1 X34.329 Y102.4 E28.79898
G1 X32.424 Y101.982 E28.89628
G1 X30.743 Y101.046 E28.99227
G1 X29.839 Y100.337 E29.04959
G1 X28.796 Y99.043 E29.13251
G1 X27.984 Y97.4 E29.22394
G1 X24.419 Y97.4 E29.4018
G1 X22.462 Y96.998 E29.50147
G1 X20.795 Y96.067 E29.59673
G1 X19.833 Y95.322 E29.65744
G1 X18.801 Y94.041 E29.7395
G1 X17.861 Y92.154 E29.84468
G1 X17.624 Y90.36 E29.93496
G1 X17.61 Y87.016 E30.1018
G1 X17.354 Y86.939 E30.11513
G1 X15.795 Y86.067 E30.20425
G1 X14.833 Y85.322 E30.26496
G1 X13.799 Y84.04 E30.34713
G1 X12.861 Y82.158 E30.45204
G1 X12.648 Y80.696 E30.52575
G1 X12.6 Y64.42 E31.33776
G1 X13.002 Y62.462 E31.43748
G1 X13.933 Y60.795 E31.53274
G1 X14.677 Y59.833 E31.59342
G1 X15.964 Y58.799 E31.67578
G1 X17.6 Y57.985 E31.76695
G1 X17.6 Y57.014 E31.81539
G1 X17.354 Y56.939 E31.82822
G1 X15.795 Y56.067 E31.91734
G1 X14.833 Y55.322 E31.97804
G1 X13.799 Y54.04 E32.06021
G1 X12.861 Y52.158 E32.16512
G1 X12.648 Y50.696 E32.23883
G1 X12.6 Y34.42 E33.05085
G1 X13.002 Y32.462 E33.15057
G1 X13.933 Y30.795 E33.24583
G1 X14.677 Y29.833 E33.3065
G1 X15.964 Y28.799 E33.38887
G1 X17.6 Y27.985 E33.48003
G1 X17.6 Y19.419 E33.90739
G1 X18.002 Y17.462 E34.00706
G1 X18.933 Y15.795 E34.10232
G1 X19.678 Y14.833 E34.16303
G0 F3600 X19.966 Y15.114
G1 F1800 X21.175 Y14.14 E34.24048
G1 X22.965 Y13.248 E34.34026
G1 X24.642 Y13.024 E34.42467
G1 X28.299 Y13.009 E34.60712
G1 X28.411 Y12.548 E34.63079
G1 X29.249 Y11.04 E34.71686
G1 X29.966 Y10.114 E34.77529
G1 X31.177 Y9.138 E34.85288
G1 X32.962 Y8.248 E34.95239
G1 X34.362 Y8.044 E35.02298
G1 X50.539 Y8 E35.83005
G1 X52.397 Y8.382 E35.92469
G1 X53.96 Y9.249 E36.01386
G1 X54.885 Y9.964 E36.07219
G1 X55.862 Y11.181 E36.15005
G1 X56.694 Y12.853 E36.24322
G1 X56.738 Y13 E36.25088
G1 X58.301 Y13 E36.32886
G1 X58.411 Y12.548 E36.35206
G1 X59.249 Y11.04 E36.43813
G1 X59.966 Y10.114 E36.49656
G1 X61.177 Y9.138 E36.57416
G1 X62.962 Y8.248 E36.67367
G1 X64.362 Y8.044 E36.74425
G1 X80.539 Y8 E37.55133
G1 X82.397 Y8.382 E37.64596
G1 X83.96 Y9.249 E37.73514
G1 X84.885 Y9.964 E37.79346
G1 X85.862 Y11.181 E37.87133
G1 X86.694 Y12.854 E37.96454
G1 X86.78 Y13.255 E37.985
G1 X87.397 Y13.382 E38.01643
G1 X88.96 Y14.249 E38.1056
G1 X89.886 Y14.966 E38.16403
G1 X90.862 Y16.177 E38.24163
G1 X91.752 Y17.962 E38.34114
G1 X91.956 Y19.362 E38.41172
G1 X91.993 Y28.3 E38.85764
G1 X92.452 Y28.411 E38.8812
G1 X93.96 Y29.249 E38.96727
G1 X94.886 Y29.966 E39.0257
G1 X95.862 Y31.177 E39.1033
G1 X96.752 Y32.962 E39.20281
G1 X96.956 Y34.362 E39.27339
G1 X97 Y50.539 E40.08047
G1 X96.618 Y52.397 E40.1751
G1 X95.751 Y53.96 E40.26428
G1 X95.036 Y54.885 E40.3226
G1 X93.819 Y55.862 E40.40047
G1 X92.147 Y56.694 E40.49364
G1 X92 Y56.738 E40.50129
G1 X92 Y58.301 E40.57927
G1 X92.452 Y58.411 E40.60248
G1 X93.96 Y59.249 E40.68855
G1 X94.886 Y59.966 E40.74698
G1 X95.862 Y61.177 E40.82458
G1 X96.752 Y62.962 E40.92409
G1 X96.956 Y64.362 E40.99467
G1 X97 Y80.539 E41.80175
G1 X96.618 Y82.397 E41.89638
G1 X95.751 Y83.96 E41.98555
G1 X95.036 Y84.885 E42.04388
G1 X93.819 Y85.862 E42.12174
G1 X92.147 Y86.694 E42.21492
G1 X92 Y86.738 E42.22257
G1 X92 Y90.539 E42.4122
G1 X91.618 Y92.397 E42.50684
G1 X90.751 Y93.96 E42.59601
G1 X90.036 Y94.885 E42.65434
G1 X88.819 Y95.862 E42.7322
G1 X87.146 Y96.694 E42.82542
G1 X86.745 Y96.78 E42.84588
G1 X86.618 Y97.397 E42.87731
G1 X85.751 Y98.96 E42.96648
G1 X85.034 Y99.886 E43.02491
G1 X83.823 Y100.862 E43.1025
G1 X82.038 Y101.752 E43.20201
G1 X80.638 Y101.956 E43.2726
G1 X64.461 Y102 E44.07967
G1 X62.603 Y101.618 E44.17431
G1 X61.04 Y100.751 E44.26348
G1 X60.115 Y100.036 E44.32181
G1 X59.138 Y98.819 E44.39967
G1 X58.306 Y97.147 E44.49284
G1 X58.262 Y97 E44.5005
G1 X56.699 Y97 E44.57847
G1 X56.589 Y97.452 E44.60168
G1 X55.751 Y98.96 E44.68775
G1 X55.034 Y99.886 E44.74618
G1 X53.823 Y100.862 E44.82378
G1 X52.038 Y101.752 E44.92329
G1 X50.638 Y101.956 E44.99387
G1 X34.373 Y102 E45.80534
G1 X32.567 Y101.603 E45.89759
G1 X30.99 Y100.731 E45.9875
G1 X30.12 Y100.048 E46.04268
G1 X29.137 Y98.829 E46.1208
G1 X28.233 Y97 E46.22259
G1 X24.461 Y97 E46.41078
G1 X22.603 Y96.618 E46.50541
G1 X21.04 Y95.751 E46.59458
G1 X20.114 Y95.034 E46.65301
G1 X19.14 Y93.825 E46.73047
G1 X18.248 Y92.035 E46.83025
G1 X18.024 Y90.358 E46.91465
G1 X18.009 Y86.701 E47.0971
G1 X17.548 Y86.589 E47.12077
G1 X16.04 Y85.751 E47.20684
G1 X15.114 Y85.034 E47.26527
G1 X14.138 Y83.823 E47.34287
G1 X13.248 Y82.038 E47.44238
G1 X13.044 Y80.638 E47.51296
G1 X13 Y64.461 E48.32004
G1 X13.382 Y62.603 E48.41467
G1 X14.249 Y61.04 E48.50384
G1 X14.964 Y60.115 E48.56217
G1 X16.181 Y59.138 E48.64003
G1 X17.853 Y58.306 E48.73321
G1 X18 Y58.262 E48.74086
G1 X18 Y56.699 E48.81884
G1 X17.548 Y56.589 E48.84205
G1 X16.04 Y55.751 E48.92812
G1 X15.114 Y55.034 E48.98655
G1 X14.138 Y53.823 E49.06414
G1 X13.248 Y52.038 E49.16365
G1 X13.044 Y50.638 E49.23424
G1 X13 Y34.461 E50.04131
G1 X13.382 Y32.603 E50.13595
G1 X14.249 Y31.04 E50.22512
G1 X14.964 Y30.115 E50.28345
G1 X16.181 Y29.138 E50.36131
G1 X17.853 Y28.306 E50.45448
G1 X18 Y28.262 E50.46214
G1 X18 Y19.461 E50.90122
G1 X18.382 Y17.603 E50.99586
G1 X19.249 Y16.04 E51.08503
G1 X19.966 Y15.114 E51.14346
G0 F3600 X20.251 Y15.398
G1 F1800 X21.395 Y14.477 E51.21673
G1 X23.084 Y13.635 E51.31088
G1 X24.644 Y13.424 E51.38942
G1 X28.627 Y13.408 E51.58814
G1 X28.761 Y12.742 E51.62203
G1 X29.599 Y11.234 E51.7081
G1 X30.251 Y10.398 E51.76099
G1 X31.397 Y9.475 E51.8344
G1 X33.082 Y8.635 E51.92834
G1 X34.42 Y8.44 E51.99579
G1 X50.497 Y8.4 E52.79788
G1 X52.257 Y8.762 E52.88753
G1 X53.766 Y9.599 E52.97362
G1 X54.6 Y10.249 E53.02637
G1 X55.525 Y11.4 E53.10004
G1 X56.336 Y13.031 E53.19091
G1 X56.407 Y13.4 E53.20966
G1 X58.629 Y13.4 E53.32052
G1 X58.761 Y12.742 E53.354
G1 X59.599 Y11.234 E53.44007
G1 X60.251 Y10.398 E53.49296
G1 X61.397 Y9.475 E53.56637
G1 X63.082 Y8.635 E53.66031
G1 X64.42 Y8.44 E53.72776
G1 X80.497 Y8.4 E54.52985
G1 X82.257 Y8.762 E54.6195
G1 X83.766 Y9.599 E54.70559
G1 X84.6 Y10.249 E54.75834
G1 X85.525 Y11.4 E54.83201
G1 X86.336 Y13.032 E54.92293
G1 X86.432 Y13.592 E54.95128
G1 X87.257 Y13.762 E54.9933
G1 X88.766 Y14.599 E55.07939
G1 X89.602 Y15.251 E55.13228
G1 X90.525 Y16.397 E55.20569
G1 X91.365 Y18.082 E55.29963
G1 X91.56 Y19.42 E55.36708
G1 X91.594 Y28.628 E55.82648
G1 X92.258 Y28.761 E55.86026
G1 X93.766 Y29.599 E55.94633
G1 X94.602 Y30.251 E55.99923
G1 X95.525 Y31.397 E56.07264
G1 X96.365 Y33.082 E56.16657
G1 X96.56 Y34.42 E56.23403
G1 X96.6 Y50.497 E57.03612
G1 X96.238 Y52.257 E57.12576
G1 X95.401 Y53.766 E57.21185
G1 X94.751 Y54.6 E57.2646
G1 X93.6 Y55.525 E57.33827
G1 X91.969 Y56.336 E57.42915
G1 X91.6 Y56.407 E57.44789
G1 X91.6 Y58.629 E57.55875
G1 X92.258 Y58.761 E57.59223
G1 X93.766 Y59.599 E57.6783
G1 X94.602 Y60.251 E57.7312
G1 X95.525 Y61.397 E57.80461
G1 X96.365 Y63.082 E57.89854
G1 X96.56 Y64.42 E57.966
G1 X96.6 Y80.497 E58.76809
G1 X96.238 Y82.257 E58.85773
G1 X95.401 Y83.766 E58.94382
G1 X94.751 Y84.6 E58.99657
G1 X93.6 Y85.525 E59.07024
G1 X91.969 Y86.336 E59.16112
G1 X91.6 Y86.407 E59.17986
G1 X91.6 Y90.497 E59.38392
G1 X91.238 Y92.257 E59.47356
G1 X90.401 Y93.766 E59.55965
G1 X89.751 Y94.6 E59.6124
G1 X88.6 Y95.525 E59.68607
G1 X86.968 Y96.336 E59.77699
G1 X86.408 Y96.432 E59.80534
G1 X86.238 Y97.257 E59.84736
G1 X85.401 Y98.766 E59.93345
G1 X84.749 Y99.602 E59.98635
G1 X83.603 Y100.525 E60.05976
G1 X81.918 Y101.365 E60.15369
G1 X80.58 Y101.56 E60.22115
G1 X64.503 Y101.6 E61.02324
G1 X62.743 Y101.238 E61.11288
G1 X61.234 Y100.401 E61.19897
G1 X60.4 Y99.751 E61.25172
G1 X59.475 Y98.6 E61.32539
G1 X58.664 Y96.969 E61.41627
G1 X58.593 Y96.6 E61.43501
G1 X56.371 Y96.6 E61.54587
G1 X56.239 Y97.258 E61.57935
G1 X55.401 Y98.766 E61.66542
G1 X54.749 Y99.602 E61.71832
G1 X53.603 Y100.525 E61.79173
G1 X51.918 Y101.365 E61.88566
G1 X50.58 Y101.56 E61.95312
G1 X34.418 Y101.6 E62.75945
G1 X32.709 Y101.224 E62.84675
G1 X31.237 Y100.416 E62.93052
G1 X30.403 Y99.762 E62.9834
G1 X29.476 Y98.611 E63.05713
G1 X28.657 Y96.955 E63.1493
G1 X28.589 Y96.6 E63.16733
G1 X24.503 Y96.6 E63.37118
G1 X22.743 Y96.238 E63.46083
G1 X21.234 Y95.401 E63.54692
G1 X20.398 Y94.749 E63.59981
G1 X19.477 Y93.605 E63.67308
G1 X18.635 Y91.916 E63.76724
G1 X18.424 Y90.356 E63.84578
G1 X18.408 Y86.373 E64.04449
G1 X17.742 Y86.239 E64.07838
G1 X16.234 Y85.401 E64.16445
G1 X15.398 Y84.749 E64.21735
G1 X14.475 Y83.603 E64.29076
G1 X13.635 Y81.918 E64.38469
G1 X13.44 Y80.58 E64.45215
G1 X13.4 Y64.503 E65.25424
G1 X13.762 Y62.743 E65.34388
G1 X14.599 Y61.234 E65.42997
G1 X15.249 Y60.4 E65.48272
G1 X16.4 Y59.475 E65.55639
G1 X18.031 Y58.664 E65.64727
G1 X18.4 Y58.593 E65.66602
G1 X18.4 Y56.371 E65.77687
G1 X17.742 Y56.239 E65.81035
G1 X16.234 Y55.401 E65.89642
G1 X15.398 Y54.749 E65.94932
G1 X14.475 Y53.603 E66.02273
G1 X13.635 Y51.918 E66.11666
G1 X13.44 Y50.58 E66.18412
G1 X13.4 Y34.503 E66.98621
G1 X13.762 Y32.743 E67.07585
G1 X14.599 Y31.234 E67.16194
G1 X15.249 Y30.4 E67.21469
G1 X16.4 Y29.475 E67.28836
G1 X18.031 Y28.664 E67.37924
G1 X18.4 Y28.593 E67.39799
G1 X18.4 Y19.503 E67.85149
G1 X18.762 Y17.743 E67.94113
G1 X19.599 Y16.234 E68.02722
G1 X20.251 Y15.398 E68.08012
G0 F3600 X20.535 Y15.683
