;FLAVOR:Marlin
;TIME:11432
;Filament used: 6.3803m
;Layer height: 0.1
;MINX:19.2
;MINY:19.2
;MINZ:0.3
;MAXX:90.8
;MAXY:90.8
;MAXZ:23
;TARGET_MACHINE.NAME:Unknown
;Generated with Cura_SteamEngine 5.10.2
M104 S200
M105
M109 S200
G28 ;Home
G1 Z15.0 F6000 ;Move the platform down 15mm
;Prime the extruder
G92 E0
G1 F200 E3
G92 E0
M82 ;absolute extrusion mode
G92 E0
G92 E0
G1 F1500 E-6.5
;LAYER_COUNT:228
;LAYER:0
M107
G0 F3600 X21.39 Y21.552 Z0.3
;TYPE:SKIRT
G1 F1500 E0
G1 F1800 X22.743 Y20.46 E0.08674
G1 X24.722 Y19.474 E0.19705
G1 X26.246 Y19.252 E0.27389
G1 X83.622 Y19.2 E3.13639
G1 X85.679 Y19.622 E3.24115
G1 X87.45 Y20.617 E3.3425
G1 X88.448 Y21.39 E3.40548
G1 X89.54 Y22.743 E3.49222
G1 X90.526 Y24.722 E3.60253
G1 X90.748 Y26.246 E3.67936
G1 X90.8 Y83.622 E6.54186
G1 X90.378 Y85.679 E6.64663
G1 X89.383 Y87.45 E6.74797
G1 X88.61 Y88.448 E6.81095
G1 X87.257 Y89.54 E6.89769
G1 X85.278 Y90.526 E7.008
G1 X83.754 Y90.748 E7.08484
G1 X26.283 Y90.8 E9.95208
G1 X24.282 Y90.361 E10.05428
G1 X22.496 Y89.361 E10.1564
G1 X21.553 Y88.622 E10.21618
G1 X20.472 Y87.276 E10.3023
G1 X19.474 Y85.26 E10.41453
G1 X19.252 Y83.754 E10.49048
G1 X19.2 Y26.378 E13.35298
G1 X19.622 Y24.321 E13.45774
G1 X20.617 Y22.55 E13.55909
G1 X21.39 Y21.552 E13.62207
G0 F3600 X21.678 Y21.833
G1 F1800 X22.96 Y20.799 E13.70424
G1 X24.842 Y19.861 E13.80915
G1 X26.304 Y19.648 E13.88285
G1 X83.581 Y19.6 E16.74042
G1 X85.538 Y20.002 E16.84009
G1 X87.205 Y20.933 E16.93535
G1 X88.167 Y21.678 E16.99605
G1 X89.201 Y22.96 E17.07822
G1 X90.139 Y24.842 E17.18313
G1 X90.352 Y26.304 E17.25684
G1 X90.4 Y83.581 E20.1144
G1 X89.998 Y85.538 E20.21408
G1 X89.067 Y87.205 E20.30934
G1 X88.322 Y88.167 E20.37004
G1 X87.04 Y89.201 E20.45221
G1 X85.158 Y90.139 E20.55712
G1 X83.696 Y90.352 E20.63083
G1 X26.328 Y90.4 E23.49293
G1 X24.424 Y89.982 E23.59018
G1 X22.743 Y89.046 E23.68617
G1 X21.837 Y88.336 E23.7436
G1 X20.808 Y87.055 E23.82557
G1 X19.861 Y85.142 E23.93207
G1 X19.648 Y83.696 E24.00499
G1 X19.6 Y26.419 E26.86255
G1 X20.002 Y24.462 E26.96222
G1 X20.933 Y22.795 E27.05748
G1 X21.678 Y21.833 E27.11819
G0 F3600 X21.966 Y22.114
G1 F1800 X23.177 Y21.138 E27.19578
G1 X24.962 Y20.248 E27.29529
G1 X26.362 Y20.044 E27.36588
G1 X83.539 Y20 E30.21845
G1 X85.397 Y20.382 E30.31308
G1 X86.96 Y21.249 E30.40226
G1 X87.886 Y21.966 E30.46068
G1 X88.862 Y23.177 E30.53828
G1 X89.752 Y24.962 E30.63779
G1 X89.956 Y26.362 E30.70837
G1 X90 Y83.539 E33.56095
G1 X89.618 Y85.397 E33.65558
G1 X88.751 Y86.96 E33.74475
G1 X88.034 Y87.886 E33.80318
G1 X86.823 Y88.862 E33.88078
G1 X85.038 Y89.752 E33.98029
G1 X83.638 Y89.956 E34.05087
G1 X26.373 Y90 E36.90784
G1 X24.567 Y89.603 E37.00009
G1 X22.99 Y88.731 E37.08999
G1 X22.121 Y88.05 E37.14507
G1 X21.144 Y86.834 E37.2229
G1 X20.248 Y85.024 E37.32366
G1 X20.044 Y83.638 E37.39355
G1 X20 Y26.461 E40.24612
G1 X20.382 Y24.603 E40.34076
G1 X21.249 Y23.04 E40.42993
G1 X21.966 Y22.114 E40.48836
G0 F3600 X22.251 Y22.398
G1 F1800 X23.397 Y21.475 E40.56177
G1 X25.082 Y20.635 E40.6557
G1 X26.42 Y20.44 E40.72316
G1 X83.497 Y20.4 E43.57074
G1 X85.257 Y20.762 E43.66039
G1 X86.766 Y21.599 E43.74648
G1 X87.602 Y22.251 E43.79937
G1 X88.525 Y23.397 E43.87278
G1 X89.365 Y25.082 E43.96671
G1 X89.56 Y26.42 E44.03417
G1 X89.6 Y83.497 E46.88176
G1 X89.238 Y85.257 E46.9714
G1 X88.401 Y86.766 E47.05749
G1 X87.749 Y87.602 E47.11038
G1 X86.603 Y88.525 E47.1838
G1 X84.918 Y89.365 E47.27773
G1 X83.58 Y89.56 E47.34519
G1 X26.418 Y89.6 E50.19701
G1 X24.709 Y89.224 E50.28431
G1 X23.237 Y88.416 E50.36809
G1 X22.405 Y87.764 E50.42082
G1 X21.483 Y86.617 E50.49424
G1 X20.635 Y84.903 E50.58965
G1 X20.44 Y83.58 E50.65637
G1 X20.4 Y26.503 E53.50395
G1 X20.762 Y24.743 E53.59359
G1 X21.599 Y23.234 E53.67968
G1 X22.251 Y22.398 E53.73258
G0 F3600 X22.535 Y22.683
G1 F1800 X23.617 Y21.812 E53.80188
G1 X25.202 Y21.022 E53.89023
G1 X26.478 Y20.836 E53.95456
G1 X83.455 Y20.8 E56.79716
G1 X85.117 Y21.142 E56.88181
G1 X86.572 Y21.949 E56.96482
G1 X87.317 Y22.535 E57.01211
G1 X88.188 Y23.617 E57.08141
G1 X88.978 Y25.202 E57.16976
G1 X89.164 Y26.478 E57.23409
G1 X89.2 Y83.455 E60.07669
G1 X88.858 Y85.117 E60.16134
G1 X88.051 Y86.572 E60.24435
G1 X87.465 Y87.317 E60.29164
G1 X86.383 Y88.188 E60.36094
G1 X84.798 Y88.978 E60.44929
G1 X83.522 Y89.164 E60.51362
G1 X26.463 Y89.2 E63.36031
G1 X24.849 Y88.845 E63.44276
G1 X23.484 Y88.101 E63.52032
G1 X22.686 Y87.476 E63.57089
G1 X21.821 Y86.399 E63.6398
G1 X21.022 Y84.785 E63.72965
G1 X20.836 Y83.522 E63.79334
G1 X20.8 Y26.545 E66.63594
G1 X21.142 Y24.883 E66.72059
G1 X21.949 Y23.428 E66.8036
G1 X22.535 Y22.683 E66.85089
G0 F3600 X22.82 Y22.968
G1 F1800 X23.835 Y22.151 E66.91589
G1 X25.323 Y21.409 E66.99885
G1 X26.536 Y21.232 E67.06001
G1 X83.413 Y21.2 E69.89761
G1 X84.977 Y21.522 E69.97728
G1 X86.378 Y22.299 E70.0572
G1 X87.032 Y22.82 E70.09892
G1 X87.849 Y23.835 E70.16392
G1 X88.591 Y25.323 E70.24688
G1 X88.768 Y26.536 E70.30804
G1 X88.8 Y83.413 E73.14564
G1 X88.478 Y84.977 E73.22531
G1 X87.701 Y86.378 E73.30523
G1 X87.18 Y87.032 E73.34695
G1 X86.165 Y87.849 E73.41195
G1 X84.677 Y88.591 E73.49491
G1 X83.464 Y88.768 E73.55606
G1 X26.508 Y88.8 E76.39761
G1 X24.989 Y88.466 E76.47521
G1 X23.731 Y87.786 E76.54655
G1 X22.97 Y87.19 E76.59477
G1 X22.157 Y86.178 E76.65954
G1 X21.409 Y84.667 E76.74365
G1 X21.232 Y83.464 E76.80432
G1 X21.2 Y26.587 E79.64192
G1 X21.522 Y25.023 E79.72159
G1 X22.299 Y23.622 E79.80151
G1 X22.82 Y22.968 E79.84323
G0 F3600 X23.104 Y23.254
G1 F1800 X24.055 Y22.488 E79.90415
G1 X25.443 Y21.796 E79.98153
G1 X26.594 Y21.628 E80.03956
G1 X83.371 Y21.6 E82.87218
G1 X84.838 Y21.902 E82.9469
G1 X86.129 Y22.612 E83.02041
G1 X86.746 Y23.104 E83.05978
G1 X87.512 Y24.055 E83.1207
G1 X88.204 Y25.443 E83.19808
G1 X88.372 Y26.594 E83.25611
G1 X88.4 Y83.371 E86.08872
G1 X88.098 Y84.838 E86.16345
G1 X87.388 Y86.129 E86.23695
G1 X86.896 Y86.746 E86.27632
G1 X85.945 Y87.512 E86.33725
G1 X84.557 Y88.204 E86.41462
G1 X83.406 Y88.372 E86.47266
G1 X26.553 Y88.4 E89.30906
G1 X25.13 Y88.087 E89.38175
G1 X23.978 Y87.471 E89.44693
G1 X23.254 Y86.904 E89.49281
G1 X22.493 Y85.957 E89.55342
G1 X21.796 Y84.549 E89.6318
G1 X21.628 Y83.406 E89.68944
G1 X21.6 Y26.629 E92.52205
G1 X21.902 Y25.162 E92.59678
G1 X22.612 Y23.871 E92.67028
G1 X23.104 Y23.254 E92.70965
G0 F3600 X23.39 Y23.537
G1 F1800 X24.271 Y22.827 E92.7661
G1 X25.563 Y22.183 E92.83813
G1 X26.652 Y22.024 E92.89303
G1 X83.329 Y22 E95.72066
G1 X84.7 Y22.282 E95.79049
G1 X85.88 Y22.925 E95.85753
G1 X86.463 Y23.39 E95.89474
G1 X87.173 Y24.271 E95.95119
G1 X87.817 Y25.563 E96.02321
G1 X87.976 Y26.652 E96.07812
G1 X88 Y83.329 E98.90574
G1 X87.718 Y84.7 E98.97558
G1 X87.075 Y85.88 E99.04262
G1 X86.61 Y86.463 E99.07982
G1 X85.729 Y87.173 E99.13627
G1 X84.437 Y87.817 E99.2083
G1 X83.348 Y87.976 E99.2632
G1 X26.598 Y88 E102.09447
G1 X25.27 Y87.708 E102.16231
G1 X24.167 Y87.118 E102.22472
G1 X23.539 Y86.619 E102.26473
G1 X22.829 Y85.736 E102.32126
G1 X22.183 Y84.431 E102.39391
G1 X22.024 Y83.348 E102.44852
G1 X22 Y26.671 E105.27615
G1 X22.282 Y25.3 E105.34598
G1 X22.925 Y24.12 E105.41302
G1 X23.39 Y23.537 E105.45022
G0 F3600 X23.674 Y23.822
G1 F1800 X24.491 Y23.164 E105.50256
G1 X25.683 Y22.57 E105.569
G1 X26.71 Y22.42 E105.62079
G1 X83.287 Y22.4 E108.44342
G1 X84.562 Y22.662 E108.50836
G1 X85.631 Y23.238 E108.56894
G1 X86.178 Y23.674 E108.60384
G1 X86.836 Y24.491 E108.65618
G1 X87.43 Y25.683 E108.72262
G1 X87.58 Y26.71 E108.7744
G1 X87.6 Y83.287 E111.59704
G1 X87.338 Y84.562 E111.66198
G1 X86.762 Y85.631 E111.72256
G1 X86.326 Y86.178 E111.75746
G1 X85.509 Y86.836 E111.8098
G1 X84.317 Y87.43 E111.87624
G1 X83.29 Y87.58 E111.92802
G1 X26.643 Y87.6 E114.75415
G1 X25.41 Y87.329 E114.81714
G1 X24.356 Y86.765 E114.87678
G1 X23.825 Y86.336 E114.91083
G1 X23.165 Y85.515 E114.96339
G1 X22.57 Y84.313 E115.0303
G1 X22.42 Y83.29 E115.08188
G1 X22.4 Y26.713 E117.90452
G1 X22.662 Y25.438 E117.96946
G1 X23.238 Y24.369 E118.03004
G1 X23.674 Y23.822 E118.06494
G0 F3600 X23.956 Y24.109
G1 F1800 X24.711 Y23.501 E118.1133
G1 X25.803 Y22.957 E118.17417
G1 X26.768 Y22.816 E118.22282
G1 X83.246 Y22.8 E121.04052
G1 X84.424 Y23.042 E121.10052
G1 X85.441 Y23.59 E121.15816
G1 X85.891 Y23.956 E121.1871
G1 X86.499 Y24.711 E121.23546
G1 X87.043 Y25.803 E121.29632
G1 X87.184 Y26.768 E121.34498
G1 X87.2 Y83.246 E124.16268
G1 X86.958 Y84.424 E124.22268
G1 X86.41 Y85.441 E124.28031
G1 X86.044 Y85.891 E124.30925
G1 X85.289 Y86.499 E124.35761
G1 X84.197 Y87.043 E124.41848
G1 X83.232 Y87.184 E124.46713
G1 X26.688 Y87.2 E127.28813
G1 X25.55 Y86.95 E127.34625
G1 X24.578 Y86.43 E127.40125
G1 X24.111 Y86.052 E127.43123
G1 X23.501 Y85.294 E127.47977
G1 X22.957 Y84.195 E127.54095
G1 X22.816 Y83.232 E127.5895
G1 X22.8 Y26.754 E130.4072
G1 X23.042 Y25.576 E130.4672
G1 X23.59 Y24.559 E130.52483
G1 X23.956 Y24.109 E130.55377
G0 F3600 X24.207 Y24.421
G1 F1800 X24.931 Y23.838 E130.60015
G1 X25.923 Y23.344 E130.65544
G1 X26.826 Y23.212 E130.70097
G1 X83.205 Y23.2 E133.51373
G1 X84.286 Y23.422 E133.56878
G1 X85.194 Y23.905 E133.62009
G1 X85.579 Y24.207 E133.64451
G1 X86.162 Y24.931 E133.69088
G1 X86.656 Y25.923 E133.74617
G1 X86.788 Y26.826 E133.7917
G1 X86.8 Y83.205 E136.60446
G1 X86.578 Y84.286 E136.65952
G1 X86.095 Y85.194 E136.71083
G1 X85.793 Y85.579 E136.73524
G1 X85.069 Y86.162 E136.78161
G1 X84.077 Y86.656 E136.8369
G1 X83.174 Y86.788 E136.88243
G1 X26.733 Y86.8 E139.69828
G1 X25.69 Y86.571 E139.75156
G1 X24.767 Y86.077 E139.80379
G1 X24.398 Y85.77 E139.82774
G1 X23.839 Y85.075 E139.87223
G1 X23.344 Y84.076 E139.92786
G1 X23.212 Y83.174 E139.97334
G1 X23.2 Y26.795 E142.7861
G1 X23.422 Y25.714 E142.84115
G1 X23.905 Y24.806 E142.89247
G1 X24.207 Y24.421 E142.91688
G0 F3600 X24.458 Y24.733
G1 F1800 X25.151 Y24.175 E142.96127
G1 X26.043 Y23.731 E143.01098
G1 X26.884 Y23.608 E143.05338
G1 X83.164 Y23.6 E145.8612
G1 X84.15 Y23.802 E145.91141
G1 X84.955 Y24.226 E145.95681
G1 X85.267 Y24.458 E145.9762
G1 X85.825 Y25.151 E146.02059
G1 X86.269 Y26.043 E146.0703
G1 X86.392 Y26.884 E146.11271
G1 X86.4 Y83.164 E148.92053
G1 X86.198 Y84.15 E148.97074
G1 X85.774 Y84.955 E149.01613
G1 X85.542 Y85.267 E149.03553
G1 X84.849 Y85.825 E149.07992
G1 X83.957 Y86.269 E149.12963
G1 X83.116 Y86.392 E149.17203
G1 X26.778 Y86.4 E151.98275
G1 X25.83 Y86.192 E152.03117
G1 X24.956 Y85.724 E152.08063
G1 X24.71 Y85.519 E152.09661
G1 X24.177 Y84.856 E152.13905
G1 X23.731 Y83.957 E152.18911
G1 X23.608 Y83.116 E152.23152
G1 X23.6 Y26.836 E155.03934
G1 X23.802 Y25.85 E155.08955
G1 X24.226 Y25.045 E155.13494
G1 X24.458 Y24.733 E155.15434
G0 F3600 X24.749 Y25.012
G1 F1800 X25.367 Y24.514 E155.19394
G1 X26.163 Y24.118 E155.23829
G1 X26.942 Y24.004 E155.27757
G1 X83.123 Y24 E158.08045
G1 X84.013 Y24.182 E158.12577
G1 X84.768 Y24.58 E158.16836
G1 X84.988 Y24.749 E158.1822
G1 X85.486 Y25.367 E158.22179
G1 X85.882 Y26.163 E158.26615
G1 X85.996 Y26.942 E158.30543
G1 X86 Y83.123 E161.10831
G1 X85.818 Y84.013 E161.15363
G1 X85.42 Y84.768 E161.19621
G1 X85.251 Y84.988 E161.21005
G1 X84.633 Y85.486 E161.24965
G1 X83.837 Y85.882 E161.294
G1 X83.058 Y85.996 E161.33328
G1 X26.823 Y86 E164.13886
G1 X25.97 Y85.813 E164.18242
G1 X25.145 Y85.371 E164.22912
G1 X25.022 Y85.268 E164.23712
G1 X24.515 Y84.637 E164.2775
G1 X24.118 Y83.837 E164.32206
G1 X24.004 Y83.058 E164.36134
G1 X24 Y26.877 E167.16422
G1 X24.182 Y25.987 E167.20954
G1 X24.58 Y25.232 E167.25212
G1 X24.749 Y25.012 E167.26596
G0 F3600 X25.037 Y25.293
G1 F1800 X25.583 Y24.853 E167.30095
G1 X26.283 Y24.505 E167.33995
G1 X27 Y24.4 E167.3761
G1 X83.082 Y24.4 E170.17404
G1 X83.878 Y24.563 E170.21458
G1 X84.582 Y24.934 E170.25428
G1 X84.707 Y25.037 E170.26236
G1 X85.147 Y25.583 E170.29735
G1 X85.495 Y26.283 E170.33635
G1 X85.6 Y27 E170.3725
G1 X85.6 Y83.082 E173.17044
G1 X85.437 Y83.878 E173.21098
G1 X85.066 Y84.582 E173.25068
G1 X84.963 Y84.707 E173.25876
G1 X84.417 Y85.147 E173.29375
G1 X83.717 Y85.495 E173.33275
G1 X83 Y85.6 E173.3689
G1 X26.868 Y85.6 E176.16934
G1 X26.11 Y85.434 E176.20805
G1 X25.334 Y85.018 E176.25198
G1 X24.854 Y84.42 E176.29023
G1 X24.505 Y83.717 E176.32939
G1 X24.4 Y83 E176.36554
G1 X24.4 Y26.918 E179.16348
G1 X24.563 Y26.122 E179.20402
G1 X24.934 Y25.418 E179.24372
G1 X25.037 Y25.293 E179.2518
G0 F3600 X25.288 Y25.604
G1 F1800 X25.799 Y25.192 E179.28455
G1 X26.405 Y24.891 E179.31831
G1 X27 Y24.8 E179.34834
G1 X83.041 Y24.8 E182.14424
G1 X83.743 Y24.944 E182.17999
G1 X84.396 Y25.288 E182.21681
G1 X84.808 Y25.799 E182.24956
G1 X85.109 Y26.405 E182.28332
G1 X85.2 Y27 E182.31335
G1 X85.2 Y83.041 E185.10924
G1 X85.056 Y83.743 E185.14499
G1 X84.712 Y84.396 E185.18182
G1 X84.201 Y84.808 E185.21456
G1 X83.595 Y85.109 E185.24832
G1 X83 Y85.2 E185.27835
G1 X26.913 Y85.2 E188.07654
G1 X26.247 Y85.054 E188.11056
G1 X25.597 Y84.705 E188.14737
G1 X25.192 Y84.201 E188.17962
G1 X24.891 Y83.595 E188.21338
G1 X24.8 Y83 E188.24341
G1 X24.8 Y26.959 E191.03931
G1 X24.944 Y26.257 E191.07506
G1 X25.288 Y25.604 E191.11188
G0 F3600 X25.605 Y25.862
G1 F1800 X25.977 Y25.55 E191.13611
G1 X26.526 Y25.277 E191.16669
G1 X27 Y25.2 E191.19065
G1 X83 Y25.2 E193.9845
G1 X83.606 Y25.324 E194.01536
G1 X84.138 Y25.605 E194.04538
G1 X84.45 Y25.977 E194.0696
G1 X84.723 Y26.526 E194.10019
G1 X84.8 Y27 E194.12415
G1 X84.8 Y83 E196.918
G1 X84.676 Y83.606 E196.94886
G1 X84.395 Y84.138 E196.97888
G1 X84.023 Y84.45 E197.0031
G1 X83.474 Y84.723 E197.03369
G1 X83 Y84.8 E197.05765
G1 X26.958 Y84.8 E199.85359
G1 X26.384 Y84.674 E199.88291
G1 X25.859 Y84.392 E199.91265
G1 X25.55 Y84.023 E199.93666
G1 X25.277 Y83.474 E199.96725
G1 X25.2 Y83 E199.9912
G1 X25.2 Y27 E202.78506
G1 X25.324 Y26.394 E202.81592
G1 X25.605 Y25.862 E202.84593
G0 F3600 X25.923 Y26.117
G1 F1800 X26.155 Y25.908 E202.86151
G1 X26.649 Y25.662 E202.88904
G1 X27 Y25.6 E202.90683
G1 X83 Y25.6 E205.70068
G1 X83.419 Y25.678 E205.72194
G1 X83.883 Y25.923 E205.74812
G1 X84.092 Y26.155 E205.7637
G1 X84.338 Y26.649 E205.79123
G1 X84.4 Y27 E205.80901
G1 X84.4 Y83 E208.60286
G1 X84.322 Y83.419 E208.62413
G1 X84.077 Y83.883 E208.6503
G1 X83.845 Y84.092 E208.66588
G1 X83.351 Y84.338 E208.69342
G1 X83 Y84.4 E208.7112
G1 X26.958 Y84.4 E211.50714
G1 X26.477 Y84.285 E211.53182
G1 X26.117 Y84.077 E211.55256
G1 X25.908 Y83.845 E211.56814
G1 X25.662 Y83.351 E211.59567
G1 X25.6 Y83 E211.61345
G1 X25.6 Y27 E214.40731
G1 X25.678 Y26.581 E214.42857
G1 X25.923 Y26.117 E214.45475
G0 F3600 X26.207 Y26.399
G1 F1800 X26.07 Y26.662 E214.46954
G1 X26 Y27 E214.48676
G1 X26 Y83 E217.28061
G1 X26.054 Y83.273 E217.2945
G1 X26.26 Y83.655 E217.31615
G1 X26.399 Y83.793 E217.32592
G1 X26.662 Y83.93 E217.34072
G1 X27 Y84 E217.35794
G1 X83 Y84 E220.15179
G1 X83.273 Y83.946 E220.16567
G1 X83.655 Y83.74 E220.18733
G1 X83.793 Y83.601 E220.1971
G1 X83.93 Y83.338 E220.21189
G1 X84 Y83 E220.22911
G1 X84 Y27 E223.02296
G1 X83.946 Y26.727 E223.03685
G1 X83.74 Y26.345 E223.0585
G1 X83.601 Y26.207 E223.06827
G1 X83.338 Y26.07 E223.08307
G1 X83 Y26 E223.10029
G1 X27 Y26 E225.89414
G1 X26.727 Y26.054 E225.90802
G1 X26.345 Y26.26 E225.92968
G1 X26.207 Y26.399 E225.93945
G0 F3600 X26.839 Y26.881
G1 F1800 X27 Y26.8 E225.94844
G1 X83 Y26.8 E228.74229
G1 X83.119 Y26.839 E228.74854
G1 X83.2 Y27 E228.75753
G1 X83.2 Y83 E231.55138
G1 X83.161 Y83.119 E231.55763
G1 X83 Y83.2 E231.56662
G1 X27 Y83.2 E234.36047
G1 X26.881 Y83.161 E234.36672
G1 X26.8 Y83 E234.37571
G1 X26.8 Y27 E237.16956
G1 X26.839 Y26.881 E237.17581
G0 F3600 X26.459 Y26.756
G1 F1800 X26.55 Y26.604 E237.18465
G1 X26.82 Y26.443 E237.20033
G1 X27 Y26.4 E237.20956
G1 X83 Y26.4 E240.00342
G1 X83.244 Y26.459 E240.01594
G1 X83.396 Y26.55 E240.02478
